!!!!SEGMENT: pl-wtm--r-1555--007_stefani-jozef--msza-no-14-benedictus.krn
!!!cenid: 18xx:1826
!!!COM: Stefani, Józef
!!!COM-rismid: pe30024097
!!!CDT: 1800/04/16-1876/03/19
!!!CNT: Polish
!!!OPR: Msza No 14
!!!OTL: Benedictus
!!!OMV: 007
!!!PDT:
!!!AGN: Sacred; Mass
!!!SMS-siglum: PL-Wtm
!!!SMS-shelfmark: R 1555
!!!SMS-shelfwork: 001-007 M
!!!SMS-variant:
!!!SMS-altvar:
!!!NIFC-rismid: 1001115185
!!!URL-scan: http://repozytorium.nifc.pl/skany/pl-wtm-nut--r1555
!!!ONB-nifc: UWAGA: części Mszy: 1. Kyrie, 2. Gloria, 3. Graduale, 4. Credo, 5. Offertorium, 6. Sanctus, 7. Benedictus, 8. Agnus Dei, 9. Dona nobis
**kern	**dynam	**kern	**dynam	**kern	**dynam	**kern	**dynam	**kern	**dynam	**kern	**dynam	**kern	**text	**dynam	**kern	**text	**dynam	**kern	**text	**dynam	**kern	**text	**dynam	**kern	**dynam	**kern	**dynam	**kern	**dynam	**kern	**dynam	**kern	**dynam	**kern	**dynam	**kern	**dynam	**kern	**dynam	**kern	**dynam
*	*	*	*	*	*	*	*	*group2	*	*group2	*	*	*	*	*	*	*	*	*	*	*	*	*	*group1	*	*group1	*	*group1	*	*	*	*	*	*	*	*	*	*	*	*	*
*	*	*	*	*	*	*	*	*I""Violini	*	*I""Violini	*	*	*	*	*	*	*	*	*	*	*	*	*	*I""Tromboni	*	*I""Tromboni	*	*I""Tromboni	*	*	*	*	*	*	*	*	*	*	*	*	*
*part19	*part19	*part18	*part18	*part17	*part17	*part16	*part16	*part15	*part15	*part14	*part14	*part13	*part13	*part13	*part12	*part12	*part12	*part11	*part11	*part11	*part10	*part10	*part10	*part9	*part9	*part8	*part8	*part7	*part7	*part6	*part6	*part5	*part5	*part4	*part4	*part3	*part3	*part2	*part2	*part1	*part1
*staff19	*	*staff18	*	*staff17	*	*staff16	*	*staff15	*	*staff14	*	*staff13	*staff13	*	*staff12	*staff12	*	*staff11	*staff11	*	*staff10	*staff10	*	*staff9	*	*staff8	*	*staff7	*	*staff6	*	*staff5	*	*staff4	*	*staff3	*	*staff2	*	*staff1	*
*Itimp	*	*Icbass	*	*Icello	*	*Iviola	*	*Iempty	*	*Iempty	*	*Iempty	*	*	*Itenor	*	*	*Ialto	*	*	*Isoprn	*	*	*Iempty	*	*Iempty	*	*Iempty	*	*Itromp	*	*Ifagot	*	*Icor	*	*Iclars	*	*Ioboe	*	*Iflt	*
*I"Timpani C. g	*	*I"C: Baſsi	*	*I"Violoncelli	*	*I"Viole	*	*	*	*	*	*I"Baſsi	*	*	*I"Tenori	*	*	*I"Alto	*	*	*I"Soprani	*	*	*	*	*	*	*	*	*I"in C Trombe	*	*I"Fagotti	*	*I"Corni in C	*	*I"in C Clarinetto	*	*I"Oboe	*	*I"Flautti	*
*I'timp	*	*I'cb	*	*I'vc	*	*I'vle	*	*I'vl	*	*I'vl	*	*I'B	*	*	*I'T	*	*	*I'A	*	*	*I'S	*	*	*I'trbn	*	*I'trbn	*	*I'trbn	*	*I'tr	*	*I'fg	*	*I'cor	*	*I'cl	*	*I'ob	*	*I'fl	*
*stria1	*	*	*	*	*	*	*	*	*	*	*	*	*	*	*	*	*	*	*	*	*	*	*	*	*	*	*	*	*	*	*	*	*	*	*	*	*	*	*	*	*
*clefF4	*	*clefF4	*	*clefF4	*	*clefC3	*	*clefG2	*	*clefG2	*	*clefF4	*	*	*clefC4	*	*	*clefG2	*	*	*clefG2	*	*	*clefF4	*	*clefC4	*	*clefC3	*	*clefG2	*	*clefF4	*	*clefG2	*	*clefG2	*	*clefG2	*	*clefG2	*
*	*	*Trd0c0	*	*	*	*	*	*	*	*	*	*	*	*	*	*	*	*	*	*	*	*	*	*	*	*	*	*	*	*	*	*	*	*Trd0c0	*	*	*	*	*	*	*
*k[b-]	*	*k[b-]	*	*k[b-]	*	*k[b-]	*	*k[b-]	*	*k[b-]	*	*k[b-]	*	*	*k[b-]	*	*	*k[b-]	*	*	*k[b-]	*	*	*k[b-]	*	*k[b-]	*	*k[b-]	*	*k[b-]	*	*k[b-]	*	*k[]	*	*k[b-]	*	*k[b-]	*	*k[b-]	*
*F:	*	*F:	*	*F:	*	*F:	*	*F:	*	*F:	*	*F:	*	*	*F:	*	*	*F:	*	*	*F:	*	*	*F:	*	*F:	*	*F:	*	*F:	*	*F:	*	*F:	*	*F:	*	*F:	*	*F:	*
*M3/4	*	*M3/4	*	*M3/4	*	*M3/4	*	*M3/4	*	*M3/4	*	*M3/4	*	*	*M3/4	*	*	*M3/4	*	*	*M3/4	*	*	*M3/4	*	*M3/4	*	*M3/4	*	*M3/4	*	*M3/4	*	*M3/4	*	*M3/4	*	*M3/4	*	*M3/4	*
=1	=1	=1	=1	=1	=1	=1	=1	=1	=1	=1	=1	=1	=1	=1	=1	=1	=1	=1	=1	=1	=1	=1	=1	=1	=1	=1	=1	=1	=1	=1	=1	=1	=1	=1	=1	=1	=1	=1	=1	=1	=1
*	*	*	*	*	*	*	*	*	*	*	*	*	*	*	*	*	*	*	*	*	*	*	*	*	*	*	*	*	*	*	*	*	*	*	*	*^	*	*	*	*	*
!	!	!	!	!	!	!	!	!	!	!LO:TX:a:t=divisi	!	!	!	!	!	!	!	!	!	!	!	!	!	!	!	!	!	!	!	!	!	!	!	!	!	!	!	!	!	!	!LO:TX:a:t=Andantino Benedictus Tercetto.	!
8.r	.	8.r	.	2.ryy	.	8.r	.	8.r	.	8.r	.	2.r	.	.	2.r	.	.	2.r	.	.	2.r	.	.	8.r	.	2.r	.	2.r	.	8.r	.	8.r	.	8.r	.	8.r	8.rAyy	.	8.r	.	8.r	.
!LO:SIC:s=16C/	!	!	!	!	!	!	!	!	!	!	!	!	!	!	!	!	!	!	!	!	!	!	!	!	!	!	!	!	!	!	!	!	!	!	!	!	!	!	!	!	!	!
16Re/	<	16C/	<	.	.	16e\	<	16cc\	.	16cc'\ 16ccc	<	.	.	.	.	.	.	.	.	.	.	.	.	16C/	.	.	<	.	.	16e/ 16cc	.	16C\ 16c	<	16c/	.	16cc/	16cc\	.	16ee\	.	16ccc|>\	<
!LO:SIC:s=4C/	!	!	!	!	!	!	!	!	!	!	!	!	!	!	!	!	!	!	!	!	!	!	!	!	!	!	!	!	!	!	!	!	!	!	!	!	!	!	!	!	!	!
4Re/	.	4C/	.	.	.	4f\	.	4bn\	.	4dd|>\ 4ddd	.	.	.	.	.	.	.	.	.	.	.	.	.	4C/	.	.	.	.	.	4f/ 4dd	.	4C\ 4Bn	.	4c/	.	4dd/	4bn\	.	4ff\	.	4ddd\	.
!LO:SIC:s=4C/	!	!	!	!	!	!	!	!	!	!	!	!	!	!	!	!	!	!	!	!	!	!	!	!	!	!	!	!	!	!	!	!	!	!	!	!	!	!	!	!	!	!
4Re/	[[	4C/	[[	.	.	(4g\	[[	4b-X\	.	4ee|>\ 4eee	[[	.	.	.	.	.	.	.	.	.	.	.	.	4C/	.	.	[[	.	ff	4g/ 4ee	.	4C\ 4B-X	[[	4c/	.	4ee/	4b-X\	.	4gg\	.	4eee\	[[
=2	=2	=2	=2	=2	=2	=2	=2	=2	=2	=2	=2	=2	=2	=2	=2	=2	=2	=2	=2	=2	=2	=2	=2	=2	=2	=2	=2	=2	=2	=2	=2	=2	=2	=2	=2	=2	=2	=2	=2	=2	=2	=2
*	*	*	*	*	*	*	*	*	*	*	*	*	*	*	*	*	*	*	*	*	*	*	*	*	*	*	*	*	*	*	*	*	*	*^	*	*	*	*	*	*	*	*
*	*	*2\right	*	*	*	*2\right	*	*	*	*2\right	*	*	*	*	*	*	*	*	*	*	*	*	*	*	*	*	*	*	*	*	*	*	*	*	*	*	*	*	*	*	*	*	*
*	*	*tremolo	*	*	*	*tremolo	*	*tremolo	*	*tremolo	*	*	*	*	*	*	*	*	*	*	*	*	*	*2\right	*	*	*	*2\right	*	*2\right	*	*2\right	*	*	*2\right	*	*	*2\right	*	*2\right	*	*2\right	*
!LO:SIC:s=4C/	!	!	!	!	!	!	!	!	!	!	!	!	!	!	!	!	!	!	!	!	!	!	!	!	!	!	!	!	!	!	!	!	!	!	!	!	!	!	!	!	!	!	!
4Re/	ff	32F\LLL	ff	2.ryy	.	32A\LLL) 32f	.	32a/LLL	ff	32ff\LLL 32fff	ff	2.r	.	.	2.r	.	.	2.r	.	.	2.r	.	.	2FF\ 2F	.	2A/	ff	2f\	.	2a\ 2ff	.	2F\ 2A	ff	2ee/	2cc\	.	(2ff/	2a\	ff	(2ff\	.	(2fff\	ff
.	.	32F\	.	.	.	32A\ 32f	.	32a/	.	32ff\ 32fff	.	.	.	.	.	.	.	.	.	.	.	.	.	.	.	.	.	.	.	.	.	.	.	.	.	.	.	.	.	.	.	.	.
.	.	32F\	.	.	.	32A\ 32f	.	32a/	.	32ff\ 32fff	.	.	.	.	.	.	.	.	.	.	.	.	.	.	.	.	.	.	.	.	.	.	.	.	.	.	.	.	.	.	.	.	.
.	.	32F\	.	.	.	32A\ 32f	.	32a/	.	32ff\ 32fff	.	.	.	.	.	.	.	.	.	.	.	.	.	.	.	.	.	.	.	.	.	.	.	.	.	.	.	.	.	.	.	.	.
.	.	32F\	.	.	.	32A\ 32f	.	32a/	.	32ff\ 32fff	.	.	.	.	.	.	.	.	.	.	.	.	.	.	.	.	.	.	.	.	.	.	.	.	.	.	.	.	.	.	.	.	.
.	.	32F\	.	.	.	32A\ 32f	.	32a/	.	32ff\ 32fff	.	.	.	.	.	.	.	.	.	.	.	.	.	.	.	.	.	.	.	.	.	.	.	.	.	.	.	.	.	.	.	.	.
.	.	32F\	.	.	.	32A\ 32f	.	32a/	.	32ff\ 32fff	.	.	.	.	.	.	.	.	.	.	.	.	.	.	.	.	.	.	.	.	.	.	.	.	.	.	.	.	.	.	.	.	.
.	.	32F\	.	.	.	32A\ 32f	.	32a/	.	32ff\ 32fff	.	.	.	.	.	.	.	.	.	.	.	.	.	.	.	.	.	.	.	.	.	.	.	.	.	.	.	.	.	.	.	.	.
4r	.	32F\	.	.	.	32A\ 32f	.	32a/	.	32ff\ 32fff	.	.	.	.	.	.	.	.	.	.	.	.	.	.	.	.	.	.	.	.	.	.	.	.	.	.	.	.	.	.	.	.	.
.	.	32F\	.	.	.	32A\ 32f	.	32a/	.	32ff\ 32fff	.	.	.	.	.	.	.	.	.	.	.	.	.	.	.	.	.	.	.	.	.	.	.	.	.	.	.	.	.	.	.	.	.
.	.	32F\	.	.	.	32A\ 32f	.	32a/	.	32ff\ 32fff	.	.	.	.	.	.	.	.	.	.	.	.	.	.	.	.	.	.	.	.	.	.	.	.	.	.	.	.	.	.	.	.	.
.	.	32F\	.	.	.	32A\ 32f	.	32a/	.	32ff\ 32fff	.	.	.	.	.	.	.	.	.	.	.	.	.	.	.	.	.	.	.	.	.	.	.	.	.	.	.	.	.	.	.	.	.
.	.	32F\	.	.	.	32A\ 32f	.	32a/	.	32ff\ 32fff	.	.	.	.	.	.	.	.	.	.	.	.	.	.	.	.	.	.	.	.	.	.	.	.	.	.	.	.	.	.	.	.	.
.	.	32F\	.	.	.	32A\ 32f	.	32a/	.	32ff\ 32fff	.	.	.	.	.	.	.	.	.	.	.	.	.	.	.	.	.	.	.	.	.	.	.	.	.	.	.	.	.	.	.	.	.
.	.	32F\	.	.	.	32A\ 32f	.	32a/	.	32ff\ 32fff	.	.	.	.	.	.	.	.	.	.	.	.	.	.	.	.	.	.	.	.	.	.	.	.	.	.	.	.	.	.	.	.	.
.	.	32F\JJJ	.	.	.	32A\JJJ 32f	.	32a/JJJ	.	32ff\JJJ 32fff	.	.	.	.	.	.	.	.	.	.	.	.	.	.	.	.	.	.	.	.	.	.	.	.	.	.	.	.	.	.	.	.	.
4r	.	32A\LLL	.	.	.	32A\LLL 32e	.	32g/LLL	.	32cc#X\LLL 32ccc#X	.	.	.	.	.	.	.	.	.	.	.	.	.	4AA\ 4A	.	4G/	.	4c#X\	.	4e/ 4cc#X	.	4AA\ 4A	.	4ee/	4cc#X\	.	4cc#X/)	4g\	.	4gg\)	.	4ccc#X\)	.
.	.	32A\	.	.	.	32A\ 32e	.	32g/	.	32cc#\ 32ccc#	.	.	.	.	.	.	.	.	.	.	.	.	.	.	.	.	.	.	.	.	.	.	.	.	.	.	.	.	.	.	.	.	.
.	.	32A\	.	.	.	32A\ 32e	.	32g/	.	32cc#\ 32ccc#	.	.	.	.	.	.	.	.	.	.	.	.	.	.	.	.	.	.	.	.	.	.	.	.	.	.	.	.	.	.	.	.	.
.	.	32A\	.	.	.	32A\ 32e	.	32g/	.	32cc#\ 32ccc#	.	.	.	.	.	.	.	.	.	.	.	.	.	.	.	.	.	.	.	.	.	.	.	.	.	.	.	.	.	.	.	.	.
.	.	32A\	.	.	.	32A\ 32e	.	32g/	.	32cc#\ 32ccc#	.	.	.	.	.	.	.	.	.	.	.	.	.	.	.	.	.	.	.	.	.	.	.	.	.	.	.	.	.	.	.	.	.
.	.	32A\	.	.	.	32A\ 32e	.	32g/	.	32cc#\ 32ccc#	.	.	.	.	.	.	.	.	.	.	.	.	.	.	.	.	.	.	.	.	.	.	.	.	.	.	.	.	.	.	.	.	.
.	.	32A\	.	.	.	32A\ 32e	.	32g/	.	32cc#\ 32ccc#	.	.	.	.	.	.	.	.	.	.	.	.	.	.	.	.	.	.	.	.	.	.	.	.	.	.	.	.	.	.	.	.	.
.	.	32A\JJJ	.	.	.	32A\JJJ 32e	.	32g/JJJ	.	32cc#\JJJ 32ccc#	.	.	.	.	.	.	.	.	.	.	.	.	.	.	.	.	.	.	.	.	.	.	.	.	.	.	.	.	.	.	.	.	.
=3	=3	=3	=3	=3	=3	=3	=3	=3	=3	=3	=3	=3	=3	=3	=3	=3	=3	=3	=3	=3	=3	=3	=3	=3	=3	=3	=3	=3	=3	=3	=3	=3	=3	=3	=3	=3	=3	=3	=3	=3	=3	=3	=3
4r	.	32B-\LLL	.	2.ryy	.	32B-/LLL 32d	.	32f/LLL	.	32dd\LLL 32ddd	.	2.r	.	.	2.r	.	.	2.r	.	.	2.r	.	.	2BB-\ 2B-	.	2F/	.	2d\	.	2f/ 2dd	.	2BB-\ 2B-	.	2dd/	2dd\	.	(2dd/	2f\	.	(2ff\	.	(2ddd\	.
.	.	32B-\	.	.	.	32B-/ 32d	.	32f/	.	32dd\ 32ddd	.	.	.	.	.	.	.	.	.	.	.	.	.	.	.	.	.	.	.	.	.	.	.	.	.	.	.	.	.	.	.	.	.
.	.	32B-\	.	.	.	32B-/ 32d	.	32f/	.	32dd\ 32ddd	.	.	.	.	.	.	.	.	.	.	.	.	.	.	.	.	.	.	.	.	.	.	.	.	.	.	.	.	.	.	.	.	.
.	.	32B-\	.	.	.	32B-/ 32d	.	32f/	.	32dd\ 32ddd	.	.	.	.	.	.	.	.	.	.	.	.	.	.	.	.	.	.	.	.	.	.	.	.	.	.	.	.	.	.	.	.	.
.	.	32B-\	.	.	.	32B-/ 32d	.	32f/	.	32dd\ 32ddd	.	.	.	.	.	.	.	.	.	.	.	.	.	.	.	.	.	.	.	.	.	.	.	.	.	.	.	.	.	.	.	.	.
.	.	32B-\	.	.	.	32B-/ 32d	.	32f/	.	32dd\ 32ddd	.	.	.	.	.	.	.	.	.	.	.	.	.	.	.	.	.	.	.	.	.	.	.	.	.	.	.	.	.	.	.	.	.
.	.	32B-\	.	.	.	32B-/ 32d	.	32f/	.	32dd\ 32ddd	.	.	.	.	.	.	.	.	.	.	.	.	.	.	.	.	.	.	.	.	.	.	.	.	.	.	.	.	.	.	.	.	.
.	.	32B-\	.	.	.	32B-/ 32d	.	32f/	.	32dd\ 32ddd	.	.	.	.	.	.	.	.	.	.	.	.	.	.	.	.	.	.	.	.	.	.	.	.	.	.	.	.	.	.	.	.	.
4r	.	32B-\	.	.	.	32B-/ 32d	.	32f/	.	32dd\ 32ddd	.	.	.	.	.	.	.	.	.	.	.	.	.	.	.	.	.	.	.	.	.	.	.	.	.	.	.	.	.	.	.	.	.
.	.	32B-\	.	.	.	32B-/ 32d	.	32f/	.	32dd\ 32ddd	.	.	.	.	.	.	.	.	.	.	.	.	.	.	.	.	.	.	.	.	.	.	.	.	.	.	.	.	.	.	.	.	.
.	.	32B-\	.	.	.	32B-/ 32d	.	32f/	.	32dd\ 32ddd	.	.	.	.	.	.	.	.	.	.	.	.	.	.	.	.	.	.	.	.	.	.	.	.	.	.	.	.	.	.	.	.	.
.	.	32B-\	.	.	.	32B-/ 32d	.	32f/	.	32dd\ 32ddd	.	.	.	.	.	.	.	.	.	.	.	.	.	.	.	.	.	.	.	.	.	.	.	.	.	.	.	.	.	.	.	.	.
.	.	32B-\	.	.	.	32B-/ 32d	.	32f/	.	32dd\ 32ddd	.	.	.	.	.	.	.	.	.	.	.	.	.	.	.	.	.	.	.	.	.	.	.	.	.	.	.	.	.	.	.	.	.
.	.	32B-\	.	.	.	32B-/ 32d	.	32f/	.	32dd\ 32ddd	.	.	.	.	.	.	.	.	.	.	.	.	.	.	.	.	.	.	.	.	.	.	.	.	.	.	.	.	.	.	.	.	.
.	.	32B-\	.	.	.	32B-/ 32d	.	32f/	.	32dd\ 32ddd	.	.	.	.	.	.	.	.	.	.	.	.	.	.	.	.	.	.	.	.	.	.	.	.	.	.	.	.	.	.	.	.	.
.	.	32B-\JJJ	.	.	.	32B-/JJJ 32d	.	32f/JJJ	.	32dd\JJJ 32ddd	.	.	.	.	.	.	.	.	.	.	.	.	.	.	.	.	.	.	.	.	.	.	.	.	.	.	.	.	.	.	.	.	.
!LO:SIC:s=4GG\	!	!	!	!	!	!	!	!	!	!	!	!	!	!	!	!	!	!	!	!	!	!	!	!	!	!	!	!	!	!	!	!	!	!	!	!	!	!	!	!	!	!	!
4Re\	.	32Bn\LLL	.	.	.	32Bn/LLL 32d	.	32f^>/LLL	.	32g^\LLL 32gg	.	.	.	.	.	.	.	.	.	.	.	.	.	4BBn\ 4Bn	.	4F/	.	4d^\	.	4f/ 4dd	.	4BBn\ 4Bn	.	4dd/	4dd\	.	4g/)	4f\	.	4ff\)	.	4gg\)	.
.	.	32B\	.	.	.	32B/ 32d	.	32f/	.	32g\ 32gg	.	.	.	.	.	.	.	.	.	.	.	.	.	.	.	.	.	.	.	.	.	.	.	.	.	.	.	.	.	.	.	.	.
.	.	32B\	.	.	.	32B/ 32d	.	32f/	.	32g\ 32gg	.	.	.	.	.	.	.	.	.	.	.	.	.	.	.	.	.	.	.	.	.	.	.	.	.	.	.	.	.	.	.	.	.
.	.	32B\	.	.	.	32B/ 32d	.	32f/	.	32g\ 32gg	.	.	.	.	.	.	.	.	.	.	.	.	.	.	.	.	.	.	.	.	.	.	.	.	.	.	.	.	.	.	.	.	.
.	.	32B\	.	.	.	32B/ 32d	.	32f/	.	32g\ 32gg	.	.	.	.	.	.	.	.	.	.	.	.	.	.	.	.	.	.	.	.	.	.	.	.	.	.	.	.	.	.	.	.	.
.	.	32B\	.	.	.	32B/ 32d	.	32f/	.	32g\ 32gg	.	.	.	.	.	.	.	.	.	.	.	.	.	.	.	.	.	.	.	.	.	.	.	.	.	.	.	.	.	.	.	.	.
.	.	32B\	.	.	.	32B/ 32d	.	32f/	.	32g\ 32gg	.	.	.	.	.	.	.	.	.	.	.	.	.	.	.	.	.	.	.	.	.	.	.	.	.	.	.	.	.	.	.	.	.
.	.	32B\JJJ	.	.	.	32B/JJJ 32d	.	32f/JJJ	.	32g\JJJ 32gg	.	.	.	.	.	.	.	.	.	.	.	.	.	.	.	.	.	.	.	.	.	.	.	.	.	.	.	.	.	.	.	.	.
*	*	*Xtremolo	*	*	*	*Xtremolo	*	*Xtremolo	*	*Xtremolo	*	*	*	*	*	*	*	*	*	*	*	*	*	*	*	*	*	*	*	*	*	*	*	*	*	*	*	*	*	*	*	*	*
*	*	*	*	*	*	*	*	*	*	*	*	*	*	*	*	*	*	*	*	*	*	*	*	*	*	*	*	*	*	*	*	*	*	*v	*v	*	*	*	*	*	*	*	*
=4	=4	=4	=4	=4	=4	=4	=4	=4	=4	=4	=4	=4	=4	=4	=4	=4	=4	=4	=4	=4	=4	=4	=4	=4	=4	=4	=4	=4	=4	=4	=4	=4	=4	=4	=4	=4	=4	=4	=4	=4	=4	=4
*	*	*	*	*	*	*	*	*	*	*	*	*	*	*	*	*	*	*	*	*	*	*	*	*	*	*	*	*	*	*	*	*^	*	*	*	*	*	*	*	*	*	*
*tremolo	*	*	*	*	*	*	*	*	*	*	*	*	*	*	*	*	*	*	*	*	*	*	*	*	*	*	*	*	*	*	*	*	*	*	*	*	*	*	*	*	*	*	*
!LO:SIC:s=32C/LLL	!	!	!	!	!	!	!	!	!	!	!	!	!	!	!	!	!	!	!	!	!	!	!	!	!	!	!	!	!	!	!	!	!	!	!	!	!	!	!	!	!	!	!
32Re/LLL	pp	2.r	.	2.r	.	2.r	.	2.r	.	2.r	.	2.r	.	.	2.r	.	.	2.r	.	.	2.r	.	.	2.r	.	2.r	.	2.r	.	2.c/ 2.cc	p	(2c/	2.rAA	p	2.r	.	(4a/	2f\	p	(2ff\	.	(4aa\	p
!LO:SIC:s=32C/	!	!	!	!	!	!	!	!	!	!	!	!	!	!	!	!	!	!	!	!	!	!	!	!	!	!	!	!	!	!	!	!	!	!	!	!	!	!	!	!	!	!	!
32Re/	.	.	.	.	.	.	.	.	.	.	.	.	.	.	.	.	.	.	.	.	.	.	.	.	.	.	.	.	.	.	.	.	.	.	.	.	.	.	.	.	.	.	.
!LO:SIC:s=32C/	!	!	!	!	!	!	!	!	!	!	!	!	!	!	!	!	!	!	!	!	!	!	!	!	!	!	!	!	!	!	!	!	!	!	!	!	!	!	!	!	!	!	!
32Re/	.	.	.	.	.	.	.	.	.	.	.	.	.	.	.	.	.	.	.	.	.	.	.	.	.	.	.	.	.	.	.	.	.	.	.	.	.	.	.	.	.	.	.
!LO:SIC:s=32C/	!	!	!	!	!	!	!	!	!	!	!	!	!	!	!	!	!	!	!	!	!	!	!	!	!	!	!	!	!	!	!	!	!	!	!	!	!	!	!	!	!	!	!
32Re/	.	.	.	.	.	.	.	.	.	.	.	.	.	.	.	.	.	.	.	.	.	.	.	.	.	.	.	.	.	.	.	.	.	.	.	.	.	.	.	.	.	.	.
!LO:SIC:s=32C/	!	!	!	!	!	!	!	!	!	!	!	!	!	!	!	!	!	!	!	!	!	!	!	!	!	!	!	!	!	!	!	!	!	!	!	!	!	!	!	!	!	!	!
32Re/	.	.	.	.	.	.	.	.	.	.	.	.	.	.	.	.	.	.	.	.	.	.	.	.	.	.	.	.	.	.	.	.	.	.	.	.	.	.	.	.	.	.	.
!LO:SIC:s=32C/	!	!	!	!	!	!	!	!	!	!	!	!	!	!	!	!	!	!	!	!	!	!	!	!	!	!	!	!	!	!	!	!	!	!	!	!	!	!	!	!	!	!	!
32Re/	.	.	.	.	.	.	.	.	.	.	.	.	.	.	.	.	.	.	.	.	.	.	.	.	.	.	.	.	.	.	.	.	.	.	.	.	.	.	.	.	.	.	.
!LO:SIC:s=32C/	!	!	!	!	!	!	!	!	!	!	!	!	!	!	!	!	!	!	!	!	!	!	!	!	!	!	!	!	!	!	!	!	!	!	!	!	!	!	!	!	!	!	!
32Re/	.	.	.	.	.	.	.	.	.	.	.	.	.	.	.	.	.	.	.	.	.	.	.	.	.	.	.	.	.	.	.	.	.	.	.	.	.	.	.	.	.	.	.
!LO:SIC:s=32C/	!	!	!	!	!	!	!	!	!	!	!	!	!	!	!	!	!	!	!	!	!	!	!	!	!	!	!	!	!	!	!	!	!	!	!	!	!	!	!	!	!	!	!
32Re/	.	.	.	.	.	.	.	.	.	.	.	.	.	.	.	.	.	.	.	.	.	.	.	.	.	.	.	.	.	.	.	.	.	.	.	.	.	.	.	.	.	.	.
!LO:SIC:s=32C/	!	!	!	!	!	!	!	!	!	!	!	!	!	!	!	!	!	!	!	!	!	!	!	!	!	!	!	!	!	!	!	!	!	!	!	!	!	!	!	!	!	!	!
32Re/	.	.	.	.	.	.	.	.	.	.	.	.	.	.	.	.	.	.	.	.	.	.	.	.	.	.	.	.	.	.	.	.	.	.	.	.	4g/	.	.	.	.	4gg\	.
!LO:SIC:s=32C/	!	!	!	!	!	!	!	!	!	!	!	!	!	!	!	!	!	!	!	!	!	!	!	!	!	!	!	!	!	!	!	!	!	!	!	!	!	!	!	!	!	!	!
32Re/	.	.	.	.	.	.	.	.	.	.	.	.	.	.	.	.	.	.	.	.	.	.	.	.	.	.	.	.	.	.	.	.	.	.	.	.	.	.	.	.	.	.	.
!LO:SIC:s=32C/	!	!	!	!	!	!	!	!	!	!	!	!	!	!	!	!	!	!	!	!	!	!	!	!	!	!	!	!	!	!	!	!	!	!	!	!	!	!	!	!	!	!	!
32Re/	.	.	.	.	.	.	.	.	.	.	.	.	.	.	.	.	.	.	.	.	.	.	.	.	.	.	.	.	.	.	.	.	.	.	.	.	.	.	.	.	.	.	.
!LO:SIC:s=32C/	!	!	!	!	!	!	!	!	!	!	!	!	!	!	!	!	!	!	!	!	!	!	!	!	!	!	!	!	!	!	!	!	!	!	!	!	!	!	!	!	!	!	!
32Re/	.	.	.	.	.	.	.	.	.	.	.	.	.	.	.	.	.	.	.	.	.	.	.	.	.	.	.	.	.	.	.	.	.	.	.	.	.	.	.	.	.	.	.
!LO:SIC:s=32C/	!	!	!	!	!	!	!	!	!	!	!	!	!	!	!	!	!	!	!	!	!	!	!	!	!	!	!	!	!	!	!	!	!	!	!	!	!	!	!	!	!	!	!
32Re/	.	.	.	.	.	.	.	.	.	.	.	.	.	.	.	.	.	.	.	.	.	.	.	.	.	.	.	.	.	.	.	.	.	.	.	.	.	.	.	.	.	.	.
!LO:SIC:s=32C/	!	!	!	!	!	!	!	!	!	!	!	!	!	!	!	!	!	!	!	!	!	!	!	!	!	!	!	!	!	!	!	!	!	!	!	!	!	!	!	!	!	!	!
32Re/	.	.	.	.	.	.	.	.	.	.	.	.	.	.	.	.	.	.	.	.	.	.	.	.	.	.	.	.	.	.	.	.	.	.	.	.	.	.	.	.	.	.	.
!LO:SIC:s=32C/	!	!	!	!	!	!	!	!	!	!	!	!	!	!	!	!	!	!	!	!	!	!	!	!	!	!	!	!	!	!	!	!	!	!	!	!	!	!	!	!	!	!	!
32Re/	.	.	.	.	.	.	.	.	.	.	.	.	.	.	.	.	.	.	.	.	.	.	.	.	.	.	.	.	.	.	.	.	.	.	.	.	.	.	.	.	.	.	.
!LO:SIC:s=32C/	!	!	!	!	!	!	!	!	!	!	!	!	!	!	!	!	!	!	!	!	!	!	!	!	!	!	!	!	!	!	!	!	!	!	!	!	!	!	!	!	!	!	!
32Re/	.	.	.	.	.	.	.	.	.	.	.	.	.	.	.	.	.	.	.	.	.	.	.	.	.	.	.	.	.	.	.	.	.	.	.	.	.	.	.	.	.	.	.
!LO:SIC:s=32C/	!	!	!	!	!	!	!	!	!	!	!	!	!	!	!	!	!	!	!	!	!	!	!	!	!	!	!	!	!	!	!	!	!	!	!	!	!	!	!	!	!	!	!
32Re/	.	.	.	.	.	.	.	.	.	.	.	.	.	.	.	.	.	.	.	.	.	.	.	.	.	.	.	.	.	.	.	4C/)	.	.	.	.	4cc/)	4e\	.	4ee\)	.	4ccc\)	.
!LO:SIC:s=32C/	!	!	!	!	!	!	!	!	!	!	!	!	!	!	!	!	!	!	!	!	!	!	!	!	!	!	!	!	!	!	!	!	!	!	!	!	!	!	!	!	!	!	!
32Re/	.	.	.	.	.	.	.	.	.	.	.	.	.	.	.	.	.	.	.	.	.	.	.	.	.	.	.	.	.	.	.	.	.	.	.	.	.	.	.	.	.	.	.
!LO:SIC:s=32C/	!	!	!	!	!	!	!	!	!	!	!	!	!	!	!	!	!	!	!	!	!	!	!	!	!	!	!	!	!	!	!	!	!	!	!	!	!	!	!	!	!	!	!
32Re/	.	.	.	.	.	.	.	.	.	.	.	.	.	.	.	.	.	.	.	.	.	.	.	.	.	.	.	.	.	.	.	.	.	.	.	.	.	.	.	.	.	.	.
!LO:SIC:s=32C/	!	!	!	!	!	!	!	!	!	!	!	!	!	!	!	!	!	!	!	!	!	!	!	!	!	!	!	!	!	!	!	!	!	!	!	!	!	!	!	!	!	!	!
32Re/	.	.	.	.	.	.	.	.	.	.	.	.	.	.	.	.	.	.	.	.	.	.	.	.	.	.	.	.	.	.	.	.	.	.	.	.	.	.	.	.	.	.	.
!LO:SIC:s=32C/	!	!	!	!	!	!	!	!	!	!	!	!	!	!	!	!	!	!	!	!	!	!	!	!	!	!	!	!	!	!	!	!	!	!	!	!	!	!	!	!	!	!	!
32Re/	.	.	.	.	.	.	.	.	.	.	.	.	.	.	.	.	.	.	.	.	.	.	.	.	.	.	.	.	.	.	.	.	.	.	.	.	.	.	.	.	.	.	.
!LO:SIC:s=32C/	!	!	!	!	!	!	!	!	!	!	!	!	!	!	!	!	!	!	!	!	!	!	!	!	!	!	!	!	!	!	!	!	!	!	!	!	!	!	!	!	!	!	!
32Re/	.	.	.	.	.	.	.	.	.	.	.	.	.	.	.	.	.	.	.	.	.	.	.	.	.	.	.	.	.	.	.	.	.	.	.	.	.	.	.	.	.	.	.
!LO:SIC:s=32C/	!	!	!	!	!	!	!	!	!	!	!	!	!	!	!	!	!	!	!	!	!	!	!	!	!	!	!	!	!	!	!	!	!	!	!	!	!	!	!	!	!	!	!
32Re/	.	.	.	.	.	.	.	.	.	.	.	.	.	.	.	.	.	.	.	.	.	.	.	.	.	.	.	.	.	.	.	.	.	.	.	.	.	.	.	.	.	.	.
!LO:SIC:s=32C/JJJ	!	!	!	!	!	!	!	!	!	!	!	!	!	!	!	!	!	!	!	!	!	!	!	!	!	!	!	!	!	!	!	!	!	!	!	!	!	!	!	!	!	!	!
32Re/JJJ	.	.	.	.	.	.	.	.	.	.	.	.	.	.	.	.	.	.	.	.	.	.	.	.	.	.	.	.	.	.	.	.	.	.	.	.	.	.	.	.	.	.	.
*Xtremolo	*	*	*	*	*	*	*	*	*	*	*	*	*	*	*	*	*	*	*	*	*	*	*	*	*	*	*	*	*	*	*	*	*	*	*	*	*	*	*	*	*	*	*
*	*	*	*	*	*	*	*	*	*	*	*	*	*	*	*	*	*	*	*	*	*	*	*	*	*	*	*	*	*	*	*	*v	*v	*	*	*	*v	*v	*	*	*	*	*
!!LO:PB:g=original
=5	=5	=5	=5	=5	=5	=5	=5	=5	=5	=5	=5	=5	=5	=5	=5	=5	=5	=5	=5	=5	=5	=5	=5	=5	=5	=5	=5	=5	=5	=5	=5	=5	=5	=5	=5	=5	=5	=5	=5	=5	=5
!	!	!LO:TX:t=P:problem:partia 5-8	!	!	!	!	!	!	!	!	!	!	!	!	!	!	!	!	!	!	!	!	!	!	!	!	!	!	!	!	!	!	!	!	!	!	!	!	!	!	!
2.ryy	.	2.ryy	.	2.r	.	2.r	.	2.r	.	2.r	.	2.ryy	.	.	4r	.	.	4r	.	.	4r	.	.	2.ryy	.	2.ryy	.	2.ryy	.	2.ryy	.	2.ryy	.	2.ryy	.	2.ryy	.	2.ryy	.	2.ryy	.
.	.	.	.	.	.	.	.	.	.	.	.	.	.	.	8r	.	.	8r	.	.	8r	.	.	.	.	.	.	.	.	.	.	.	.	.	.	.	.	.	.	.	.
!	!	!	!	!	!	!	!	!	!	!	!	!	!	!	!	!	!	!	!	!	!LO:TX:a:i:t=Solo. dolce	!	!	!	!	!	!	!	!	!	!	!	!	!	!	!	!	!	!	!	!
.	.	.	.	.	.	.	.	.	.	.	.	.	.	.	8f\	Wszech-	.	8a/	.	.	8cc\	.	.	.	.	.	.	.	.	.	.	.	.	.	.	.	.	.	.	.	.
.	.	.	.	.	.	.	.	.	.	.	.	.	.	.	8e\	-mo-	.	8b-/	.	.	8dd\	.	.	.	.	.	.	.	.	.	.	.	.	.	.	.	.	.	.	.	.
.	.	.	.	.	.	.	.	.	.	.	.	.	.	.	8f\	-cny	.	8a/	.	.	8cc\	.	.	.	.	.	.	.	.	.	.	.	.	.	.	.	.	.	.	.	.
=6	=6	=6	=6	=6	=6	=6	=6	=6	=6	=6	=6	=6	=6	=6	=6	=6	=6	=6	=6	=6	=6	=6	=6	=6	=6	=6	=6	=6	=6	=6	=6	=6	=6	=6	=6	=6	=6	=6	=6	=6	=6
*	*	*	*	*^	*	*	*	*	*	*	*	*	*	*	*	*	*	*	*	*	*	*	*	*	*	*	*	*	*	*	*	*	*	*	*	*	*	*	*	*	*
2.ryy	.	2.ryy	.	4r	2.rAA	.	4r	.	4r	.	4r	.	2.ryy	.	.	4e\	Pa-	.	4g/	.	.	(8.cc\L	.	.	2.ryy	.	2.ryy	.	2.ryy	.	2.ryy	.	2.ryy	.	2.ryy	.	2.ryy	.	2.ryy	.	2.ryy	.
.	.	.	.	.	.	.	.	.	.	.	.	.	.	.	.	.	.	.	.	.	.	16b-\Jk	.	.	.	.	.	.	.	.	.	.	.	.	.	.	.	.	.	.	.	.
.	.	.	.	8r	.	.	8r	.	8r	.	8r	p	.	.	.	8f\	-nie	.	8f/	.	.	8a/)	.	.	.	.	.	.	.	.	.	.	.	.	.	.	.	.	.	.	.	.
.	.	.	.	(8c#X\L	.	p	(8c#X\L	.	(8e/L	.	4a^/	.	.	.	.	(8c#X\L	wie-	.	(>8e/L	.	.	4a^>/	.	.	.	.	.	.	.	.	.	.	.	.	.	.	.	.	.	.	.	.
.	.	.	.	8d\	.	.	8d\	.	8f/	.	.	.	.	.	.	8d\J)	.	.	8f/J)	.	.	.	.	.	.	.	.	.	.	.	.	.	.	.	.	.	.	.	.	.	.	.
.	.	.	.	8cn\J	.	.	8cn\J	.	8e/J)	.	8a/	.	.	.	.	8cn\	-ku-	.	8e/	.	.	8a/	.	.	.	.	.	.	.	.	.	.	.	.	.	.	.	.	.	.	.	.
=7	=7	=7	=7	=7	=7	=7	=7	=7	=7	=7	=7	=7	=7	=7	=7	=7	=7	=7	=7	=7	=7	=7	=7	=7	=7	=7	=7	=7	=7	=7	=7	=7	=7	=7	=7	=7	=7	=7	=7	=7	=7	=7
*	*	*	*	*	*	*	*	*	*	*	*	*	*	*	*	*2\right	*	*	*	*	*	*	*	*	*	*	*	*	*	*	*	*	*	*	*	*	*	*	*	*	*	*
!	!	!	!	!LO:SIC:v:s=2B-	!	!	!	!	!	!	!	!	!	!	!	!	!	!	!	!	!	!	!	!	!	!	!	!	!	!	!	!	!	!	!	!	!	!	!	!	!	!
2.ryy	.	2.ryy	.	2Bn/)	2.r	.	2B-/)	.	2d/	.	(4a/	.	2.ryy	.	.	2B-\	-i-	.	2d/	.	.	(>4a/	.	.	2.ryy	.	2.ryy	.	2.ryy	.	2.ryy	.	2.ryy	.	2.ryy	.	2.ryy	.	2.ryy	.	2.ryy	.
.	.	.	.	.	.	.	.	.	.	.	4g/)	.	.	.	.	.	.	.	.	.	.	4g/)	.	.	.	.	.	.	.	.	.	.	.	.	.	.	.	.	.	.	.	.
.	.	.	.	4Bn/	.	.	4Bn/	.	4d/	.	(>4a-X^/	.	.	.	.	4Bn\	-sty	.	4d/	.	.	4a-X^>/	.	.	.	.	.	.	.	.	.	.	.	.	.	.	.	.	.	.	.	.
=8	=8	=8	=8	=8	=8	=8	=8	=8	=8	=8	=8	=8	=8	=8	=8	=8	=8	=8	=8	=8	=8	=8	=8	=8	=8	=8	=8	=8	=8	=8	=8	=8	=8	=8	=8	=8	=8	=8	=8	=8	=8	=8
2.ryy	.	2.ryy	.	(4c/	2.rAA	.	4.c/	.	(>4f/	.	4an/	.	2.ryy	.	.	4c\	Bo-	.	(8.f/L	.	.	(8.a/L	.	.	2.ryy	.	2.ryy	.	2.ryy	.	2.ryy	.	2.ryy	.	2.ryy	.	2.ryy	.	2.ryy	.	2.ryy	.
.	.	.	.	.	.	.	.	.	.	.	.	.	.	.	.	.	.	.	32g/LL	.	.	32b-/LL	.	.	.	.	.	.	.	.	.	.	.	.	.	.	.	.	.	.	.	.
.	.	.	.	.	.	.	.	.	.	.	.	.	.	.	.	.	.	.	32f/JJJ)	.	.	32a/JJJ)	.	.	.	.	.	.	.	.	.	.	.	.	.	.	.	.	.	.	.	.
.	.	.	.	8C/)	.	.	.	.	8e/)	.	8g/)	.	.	.	.	8c\	-że	.	8e/	.	.	8g/	.	.	.	.	.	.	.	.	.	.	.	.	.	.	.	.	.	.	.	.
.	.	.	.	8r	.	.	8r	.	8r	.	8r	.	.	.	.	8c\	Któż	.	8e/	.	.	8g/	.	.	.	.	.	.	.	.	.	.	.	.	.	.	.	.	.	.	.	.
.	.	.	.	4r	.	.	4r	.	4r	.	4r	.	.	.	.	8c\	się	.	8g/	.	.	(16ff\LL	.	>	.	.	.	.	.	.	.	.	.	.	.	.	.	.	.	.	.	.
.	.	.	.	.	.	.	.	.	.	.	.	.	.	.	.	.	.	.	.	.	.	16ee\JJ)	.	.	.	.	.	.	.	.	.	.	.	.	.	.	.	.	.	.	.	.
.	.	.	.	.	.	.	.	.	.	.	.	.	.	.	.	8e\	Twym	.	8g/	.	.	(16dd\LL	.	.	.	.	.	.	.	.	.	.	.	.	.	.	.	.	.	.	.	.
.	.	.	.	.	.	.	.	.	.	.	.	.	.	.	.	.	.	.	.	.	.	16cc\JJ)	.	]	.	.	.	.	.	.	.	.	.	.	.	.	.	.	.	.	.	.
*	*	*	*	*v	*v	*	*	*	*	*	*	*	*	*	*	*	*	*	*	*	*	*	*	*	*	*	*	*	*	*	*	*	*	*	*	*	*	*	*	*	*	*
=9	=9	=9	=9	=9	=9	=9	=9	=9	=9	=9	=9	=9	=9	=9	=9	=9	=9	=9	=9	=9	=9	=9	=9	=9	=9	=9	=9	=9	=9	=9	=9	=9	=9	=9	=9	=9	=9	=9	=9	=9	=9
*	*	*	*	*	*	*	*	*	*	*	*	*	*	*	*	*	*	*	*	*	*2\right	*	*	*	*	*	*	*	*	*	*	*	*	*	*	*	*	*	*	*	*
2.ryy	.	2.ryy	.	2.r	.	2.r	.	2.r	.	2.r	.	2.ryy	.	.	2f\	spra-	.	2g/	.	.	2bn\	.	.	2.ryy	.	2.ryy	.	2.ryy	.	2.ryy	.	2.ryy	.	2.ryy	.	2.ryy	.	2.ryy	.	2.ryy	.
.	.	.	.	.	.	.	.	.	.	.	.	.	.	.	4e\	-wom	.	4g/	.	.	4cc\	.	.	.	.	.	.	.	.	.	.	.	.	.	.	.	.	.	.	.	.
!!LO:LB:g=original
=10	=10	=10	=10	=10	=10	=10	=10	=10	=10	=10	=10	=10	=10	=10	=10	=10	=10	=10	=10	=10	=10	=10	=10	=10	=10	=10	=10	=10	=10	=10	=10	=10	=10	=10	=10	=10	=10	=10	=10	=10	=10
*	*	*	*	*^	*	*	*	*	*	*	*	*	*	*	*	*	*	*	*	*	*	*	*	*	*	*	*	*	*	*	*	*	*	*	*	*	*	*	*	*	*
2.ryy	.	2.ryy	.	4r	2.rAA	.	4r	.	4r	.	4r	.	2.ryy	.	.	8.Bn\	wy-	.	8.g/	.	.	8.dd\	.	.	2.ryy	.	2.ryy	.	2.ryy	.	2.ryy	.	2.ryy	.	2.ryy	.	2.ryy	.	2.ryy	.	2.ryy	.
.	.	.	.	.	.	.	.	.	.	.	.	.	.	.	.	16B\	-dzi-	.	16g/	.	.	16dd\	.	.	.	.	.	.	.	.	.	.	.	.	.	.	.	.	.	.	.	.
.	.	.	.	4r	.	.	4r	.	4r	.	4r	.	.	.	.	4c\	-wo-	.	4g/	.	.	4ee\	.	.	.	.	.	.	.	.	.	.	.	.	.	.	.	.	.	.	.	.
.	.	.	.	4A/	.	.	4A/	.	4c/	.	4c/	<[	.	.	.	4A\	-wać	.	4a/	.	.	4cc\	.	.	.	.	.	.	.	.	.	.	.	.	.	.	.	.	.	.	.	.
=11	=11	=11	=11	=11	=11	=11	=11	=11	=11	=11	=11	=11	=11	=11	=11	=11	=11	=11	=11	=11	=11	=11	=11	=11	=11	=11	=11	=11	=11	=11	=11	=11	=11	=11	=11	=11	=11	=11	=11	=11	=11	=11
2.ryy	.	2.ryy	.	(4G/	2.rAA	.	4.G/	.	4c/	.	(>4e/	>	2.ryy	.	.	4G/	mo-	.	(8.cc\L	.	.	(8.ee\L	.	.	2.ryy	.	2.ryy	.	2.ryy	.	2.ryy	.	2.ryy	.	2.ryy	.	2.ryy	.	2.ryy	.	2.ryy	.
.	.	.	.	.	.	.	.	.	.	.	.	.	.	.	.	.	.	.	32dd\LL	.	.	32ff\LL	.	.	.	.	.	.	.	.	.	.	.	.	.	.	.	.	.	.	.	.
.	.	.	.	.	.	.	.	.	.	.	.	.	.	.	.	.	.	.	32cc\JJJ	.	.	32ee\JJJ)	.	.	.	.	.	.	.	.	.	.	.	.	.	.	.	.	.	.	.	.
.	.	.	.	8GG/)	.	.	.	.	8Bn/	.	8d/)	]	.	.	.	8G/	-że,	.	8bn\)	.	.	8dd\	.	.	.	.	.	.	.	.	.	.	.	.	.	.	.	.	.	.	.	.
.	.	.	.	8rBB	.	.	8r	.	8r	.	8r	.	.	.	.	(>8.G/L	kto	.	8r	.	.	8r	.	.	.	.	.	.	.	.	.	.	.	.	.	.	.	.	.	.	.	.
.	.	.	.	4rBB	.	.	4r	.	4r	.	4r	.	.	.	.	.	.	.	4r	.	.	4r	.	.	.	.	.	.	.	.	.	.	.	.	.	.	.	.	.	.	.	.
.	.	.	.	.	.	.	.	.	.	.	.	.	.	.	.	32F#X/LL	.	.	.	.	.	.	.	.	.	.	.	.	.	.	.	.	.	.	.	.	.	.	.	.	.	.
.	.	.	.	.	.	.	.	.	.	.	.	.	.	.	.	32G/JJJ)	.	.	.	.	.	.	.	.	.	.	.	.	.	.	.	.	.	.	.	.	.	.	.	.	.	.
.	.	.	.	.	.	.	.	.	.	.	.	.	.	.	.	16Bn\	ro-	.	.	.	.	.	.	.	.	.	.	.	.	.	.	.	.	.	.	.	.	.	.	.	.	.
.	.	.	.	.	.	.	.	.	.	.	.	.	.	.	.	16d\	-zu-	.	.	.	.	.	.	.	.	.	.	.	.	.	.	.	.	.	.	.	.	.	.	.	.	.
*	*	*	*	*v	*v	*	*	*	*	*	*	*	*	*	*	*	*	*	*	*	*	*	*	*	*	*	*	*	*	*	*	*	*	*	*	*	*	*	*	*	*	*
=12	=12	=12	=12	=12	=12	=12	=12	=12	=12	=12	=12	=12	=12	=12	=12	=12	=12	=12	=12	=12	=12	=12	=12	=12	=12	=12	=12	=12	=12	=12	=12	=12	=12	=12	=12	=12	=12	=12	=12	=12	=12
2.ryy	.	2.ryy	.	2.r	.	2.r	.	2.r	.	2.r	.	2.ryy	.	.	4f\	-mo-	.	4r	.	.	4r	.	.	2.ryy	.	2.ryy	.	2.ryy	.	2.ryy	.	2.ryy	.	2.ryy	.	2.ryy	.	2.ryy	.	2.ryy	.
.	.	.	.	.	.	.	.	.	.	.	.	.	.	.	8d\	-wi	.	8r	.	.	8r	.	.	.	.	.	.	.	.	.	.	.	.	.	.	.	.	.	.	.	.
.	.	.	.	.	.	.	.	.	.	.	.	.	.	.	8f\	Kto	.	8g/	.	.	8bn\	.	.	.	.	.	.	.	.	.	.	.	.	.	.	.	.	.	.	.	.
.	.	.	.	.	.	.	.	.	.	.	.	.	.	.	8.e\	ro-	.	8.g/	.	.	8.cc\	.	.	.	.	.	.	.	.	.	.	.	.	.	.	.	.	.	.	.	.
.	.	.	.	.	.	.	.	.	.	.	.	.	.	.	16Bn\	-zu-	.	16g/	.	.	16dd\	.	.	.	.	.	.	.	.	.	.	.	.	.	.	.	.	.	.	.	.
=13	=13	=13	=13	=13	=13	=13	=13	=13	=13	=13	=13	=13	=13	=13	=13	=13	=13	=13	=13	=13	=13	=13	=13	=13	=13	=13	=13	=13	=13	=13	=13	=13	=13	=13	=13	=13	=13	=13	=13	=13	=13
*	*	*	*	*^	*	*	*	*	*	*	*	*	*	*	*	*	*	*	*	*	*	*	*	*	*	*	*	*	*	*	*	*	*	*	*	*	*	*	*	*	*
2.ryy	.	2.ryy	.	4r	2.rAA	.	4r	.	4r	.	4r	.	2.ryy	.	.	(8.c\L	-mo-	.	4g/	.	.	(8.ee\L	.	.	2.ryy	.	2.ryy	.	2.ryy	.	2.ryy	.	2.ryy	.	2.ryy	.	2.ryy	.	2.ryy	.	2.ryy	.
.	.	.	.	.	.	.	.	.	.	.	.	.	.	.	.	16e\Jk)	.	.	.	.	.	16cc\Jk)	.	.	.	.	.	.	.	.	.	.	.	.	.	.	.	.	.	.	.	.
.	.	.	.	8r	.	.	8r	.	8r	.	8r	f	.	.	.	8e\	-wi	.	8g/	.	.	8cc\	.	.	.	.	.	.	.	.	.	.	.	.	.	.	.	.	.	.	.	.
!	!	!	!	!	!	!	!	!	!	!	!	!	!	!	!	!	!	!LO:DY:a	!	!	!LO:DY:a	!	!	!LO:DY:a	!	!	!	!	!	!	!	!	!	!	!	!	!	!	!	!	!	!
.	.	.	.	(8c\L	.	.	(8c\L	.	(8e/L	.	(8cc\L	.	.	.	.	16c\	Któ-	f	16e/	.	f	16cc\	.	f	.	.	.	.	.	.	.	.	.	.	.	.	.	.	.	.	.	.
.	.	.	.	.	.	.	.	.	.	.	.	.	.	.	.	16c\	-rym	.	16e/	.	.	16cc\	.	.	.	.	.	.	.	.	.	.	.	.	.	.	.	.	.	.	.	.
.	.	.	.	8d\	.	.	8d\	.	8f/	.	8bn\	.	.	.	.	8d\	nie-	.	8f/	.	.	8bn\	.	.	.	.	.	.	.	.	.	.	.	.	.	.	.	.	.	.	.	.
.	.	.	.	8e\J)	.	.	8e\J)	.	8g/J)	.	8cc\J)	.	.	.	.	8e\	-zmie-	.	8g/	.	.	8cc\	.	.	.	.	.	.	.	.	.	.	.	.	.	.	.	.	.	.	.	.
!!LO:PB:g=original
=14	=14	=14	=14	=14	=14	=14	=14	=14	=14	=14	=14	=14	=14	=14	=14	=14	=14	=14	=14	=14	=14	=14	=14	=14	=14	=14	=14	=14	=14	=14	=14	=14	=14	=14	=14	=14	=14	=14	=14	=14	=14	=14
2.ryy	.	2.ryy	.	4f\	2.rAA	.	8r	.	8r	.	8r	.	2.ryy	.	.	2f\	-żo-	.	2f/	.	.	2a/	.	.	2.ryy	.	2.ryy	.	2.ryy	.	2.ryy	.	2.ryy	.	2.ryy	.	2.ryy	.	2.ryy	.	2.ryy	.
.	.	.	.	.	.	.	8c\L	.	8f/L	<	8a/L	<	.	.	.	.	.	.	.	.	.	.	.	.	.	.	.	.	.	.	.	.	.	.	.	.	.	.	.	.	.	.
.	.	.	.	4r	.	.	8c\	.	8f/	.	8a/	.	.	.	.	.	.	.	.	.	.	.	.	.	.	.	.	.	.	.	.	.	.	.	.	.	.	.	.	.	.	.
.	.	.	.	.	.	.	8c\J	.	8f/J	.	8a/J	.	.	.	.	.	.	.	.	.	.	.	.	.	.	.	.	.	.	.	.	.	.	.	.	.	.	.	.	.	.	.
.	.	.	.	4e\	.	.	8r	.	8r	.	8r	.	.	.	.	4e\	-na	.	4g/	.	.	4cc\	.	.	.	.	.	.	.	.	.	.	.	.	.	.	.	.	.	.	.	.
.	.	.	.	.	.	.	8c\	.	8g/	.	8cc\	.	.	.	.	.	.	.	.	.	.	.	.	.	.	.	.	.	.	.	.	.	.	.	.	.	.	.	.	.	.	.
=15	=15	=15	=15	=15	=15	=15	=15	=15	=15	=15	=15	=15	=15	=15	=15	=15	=15	=15	=15	=15	=15	=15	=15	=15	=15	=15	=15	=15	=15	=15	=15	=15	=15	=15	=15	=15	=15	=15	=15	=15	=15	=15
*	*	*	*	*	*^	*	*	*	*	*	*	*	*	*	*	*	*	*	*	*	*	*	*	*	*	*	*	*	*	*	*	*	*	*	*	*	*	*	*	*	*	*
2.ryy	.	2.ryy	.	4ryy	2.rAA	8d\	.	8r	.	8r	.	8r	.	2.ryy	.	.	4d\	zie-	.	4f/	.	.	4ff\	.	.	2.ryy	.	2.ryy	.	2.ryy	.	2.ryy	.	2.ryy	.	2.ryy	.	2.ryy	.	2.ryy	.	2.ryy	.
.	.	.	.	.	.	8r	.	8d\	.	8a/	.	8ff\	.	.	.	.	.	.	.	.	.	.	.	.	.	.	.	.	.	.	.	.	.	.	.	.	.	.	.	.	.	.	.
!	!	!	!	!	!	!	!	!	!	!	!	!	!LO:DY:a	!	!	!	!	!	!	!	!	!	!	!	!	!	!	!	!	!	!	!	!	!	!	!	!	!	!	!	!	!	!
.	.	.	.	4d/	.	8d\	.	8r	.	8r	[	8r	[ p	.	.	.	4.d\	-mia	.	4.f/	.	.	4.f/	.	.	.	.	.	.	.	.	.	.	.	.	.	.	.	.	.	.	.	.
.	.	.	.	.	.	8r	.	8d\	.	8f/	.	8f^>/	.	.	.	.	.	.	.	.	.	.	.	.	.	.	.	.	.	.	.	.	.	.	.	.	.	.	.	.	.	.	.
.	.	.	.	8rEEyy	.	8d\L	.	8r	.	8r	.	8r	.	.	.	.	.	.	.	.	.	.	.	.	.	.	.	.	.	.	.	.	.	.	.	.	.	.	.	.	.	.	.
.	.	.	.	8B-X/	.	8B-X\J	.	8d\	.	8d/	.	8g/	.	.	.	.	8B-X\	stwo-	.	8d/	.	.	8g/	.	.	.	.	.	.	.	.	.	.	.	.	.	.	.	.	.	.	.	.
*	*	*	*	*v	*v	*v	*	*	*	*	*	*	*	*	*	*	*	*	*	*	*	*	*	*	*	*	*	*	*	*	*	*	*	*	*	*	*	*	*	*	*	*	*
=16	=16	=16	=16	=16	=16	=16	=16	=16	=16	=16	=16	=16	=16	=16	=16	=16	=16	=16	=16	=16	=16	=16	=16	=16	=16	=16	=16	=16	=16	=16	=16	=16	=16	=16	=16	=16	=16	=16	=16	=16	=16
2.ryy	.	2.ryy	.	4.A/	.	8r	.	(4d^>/	.	4.a/	.	2.ryy	.	.	4A\	-rzo-	.	4d/	.	.	4a/	.	.	2.ryy	.	2.ryy	.	2.ryy	.	2.ryy	.	2.ryy	.	2.ryy	.	2.ryy	.	2.ryy	.	2.ryy	.
.	.	.	.	.	.	4.A\ 4.e	.	.	.	.	.	.	.	.	.	.	.	.	.	.	.	.	.	.	.	.	.	.	.	.	.	.	.	.	.	.	.	.	.	.	.
.	.	.	.	.	.	.	.	8c#X/)	.	.	.	.	.	.	8A\	-na	.	8c#X/	.	.	8a/	.	.	.	.	.	.	.	.	.	.	.	.	.	.	.	.	.	.	.	.
.	.	.	.	8r	.	.	.	8r	.	8r	.	.	.	.	8r	.	.	8r	.	.	8r	.	.	.	.	.	.	.	.	.	.	.	.	.	.	.	.	.	.	.	.
.	.	.	.	4r	.	4r	.	4r	.	4r	.	.	.	.	16A\LL	Gdzie-	.	4r	.	.	4r	.	.	.	.	.	.	.	.	.	.	.	.	.	.	.	.	.	.	.	.
.	.	.	.	.	.	.	.	.	.	.	.	.	.	.	32G#X\L	.	.	.	.	.	.	.	.	.	.	.	.	.	.	.	.	.	.	.	.	.	.	.	.	.	.
.	.	.	.	.	.	.	.	.	.	.	.	.	.	.	32A\JJJ	.	.	.	.	.	.	.	.	.	.	.	.	.	.	.	.	.	.	.	.	.	.	.	.	.	.
.	.	.	.	.	.	.	.	.	.	.	.	.	.	.	16c#X\	-kol-	.	.	.	.	.	.	.	.	.	.	.	.	.	.	.	.	.	.	.	.	.	.	.	.	.
.	.	.	.	.	.	.	.	.	.	.	.	.	.	.	16e\	-wiek	.	.	.	.	.	.	.	.	.	.	.	.	.	.	.	.	.	.	.	.	.	.	.	.	.
=17	=17	=17	=17	=17	=17	=17	=17	=17	=17	=17	=17	=17	=17	=17	=17	=17	=17	=17	=17	=17	=17	=17	=17	=17	=17	=17	=17	=17	=17	=17	=17	=17	=17	=17	=17	=17	=17	=17	=17	=17	=17
2.ryy	.	2.ryy	.	2.r	.	2.r	.	2.r	.	2.r	.	2.ryy	.	.	4f\	słoń-	.	4r	.	.	4r	.	.	2.ryy	.	2.ryy	.	2.ryy	.	2.ryy	.	2.ryy	.	2.ryy	.	2.ryy	.	2.ryy	.	2.ryy	.
.	.	.	.	.	.	.	.	.	.	.	.	.	.	.	8d\	-ce	.	8r	.	.	8r	.	.	.	.	.	.	.	.	.	.	.	.	.	.	.	.	.	.	.	.
.	.	.	.	.	.	.	.	.	.	.	.	.	.	.	16f\	rzu-	.	16g/	.	.	16bn\	.	.	.	.	.	.	.	.	.	.	.	.	.	.	.	.	.	.	.	.
.	.	.	.	.	.	.	.	.	.	.	.	.	.	.	16f\	-ca	.	16g/	.	.	16b\	.	.	.	.	.	.	.	.	.	.	.	.	.	.	.	.	.	.	.	.
.	.	.	.	.	.	.	.	.	.	.	.	.	.	.	8e\	o-	.	8g/	.	.	8cc\	.	.	.	.	.	.	.	.	.	.	.	.	.	.	.	.	.	.	.	.
.	.	.	.	.	.	.	.	.	.	.	.	.	.	.	8c\	-gnie	.	8g/	.	.	8ee\	.	.	.	.	.	.	.	.	.	.	.	.	.	.	.	.	.	.	.	.
!!LO:LB:g=original
=18	=18	=18	=18	=18	=18	=18	=18	=18	=18	=18	=18	=18	=18	=18	=18	=18	=18	=18	=18	=18	=18	=18	=18	=18	=18	=18	=18	=18	=18	=18	=18	=18	=18	=18	=18	=18	=18	=18	=18	=18	=18
*	*	*	*	*^	*	*	*	*	*	*	*	*	*	*	*	*	*	*	*	*	*	*	*	*	*	*	*	*	*	*	*	*	*	*	*	*	*	*	*	*	*
2.ryy	.	2.ryy	.	(4g\	2.rAA	.	4g\	.	(4c/	.	(>4e/	.	2.ryy	.	.	4g\	swo-	.	(8.cc\L	.	.	(8.ee\L	.	.	2.ryy	.	2.ryy	.	2.ryy	.	2.ryy	.	2.ryy	.	2.ryy	.	2.ryy	.	2.ryy	.	2.ryy	.
.	.	.	.	.	.	.	.	.	.	.	.	.	.	.	.	.	.	.	32dd\LL	.	.	32ff\LL	.	.	.	.	.	.	.	.	.	.	.	.	.	.	.	.	.	.	.	.
.	.	.	.	.	.	.	.	.	.	.	.	.	.	.	.	.	.	.	32cc\JJJ)	.	.	32ee\JJJ)	.	.	.	.	.	.	.	.	.	.	.	.	.	.	.	.	.	.	.	.
!	!	!	!	!	!	!	!	!	!LO:SIC:s:v=Bn	!	!	!	!	!	!	!	!	!	!	!	!	!	!	!	!	!	!	!	!	!	!	!	!	!	!	!	!	!	!	!	!	!
.	.	.	.	8G\)	.	.	8G/	.	8B-;/)	.	8d;/)	.	.	.	.	8G;/	-je,	.	8bn;\	.	.	8dd;\	.	.	.	.	.	.	.	.	.	.	.	.	.	.	.	.	.	.	.	.
.	.	.	.	8r	.	.	8r	.	8r	.	8r	.	.	.	.	8c\	Po	.	8e/	.	.	(16cc\LL	.	.	.	.	.	.	.	.	.	.	.	.	.	.	.	.	.	.	.	.
.	.	.	.	.	.	.	.	.	.	.	.	.	.	.	.	.	.	.	.	.	.	32dd\L	.	.	.	.	.	.	.	.	.	.	.	.	.	.	.	.	.	.	.	.
.	.	.	.	.	.	.	.	.	.	.	.	.	.	.	.	.	.	.	.	.	.	32cc\JJJ)	.	.	.	.	.	.	.	.	.	.	.	.	.	.	.	.	.	.	.	.
.	.	.	.	4r	.	.	4r	.	4r	.	4r	.	.	.	.	8d\	ca-	.	8f/	.	.	8bn\	.	.	.	.	.	.	.	.	.	.	.	.	.	.	.	.	.	.	.	.
.	.	.	.	.	.	.	.	.	.	.	.	.	.	.	.	8e\	-łym	.	8g/	.	.	8cc\	.	.	.	.	.	.	.	.	.	.	.	.	.	.	.	.	.	.	.	.
=19	=19	=19	=19	=19	=19	=19	=19	=19	=19	=19	=19	=19	=19	=19	=19	=19	=19	=19	=19	=19	=19	=19	=19	=19	=19	=19	=19	=19	=19	=19	=19	=19	=19	=19	=19	=19	=19	=19	=19	=19	=19	=19
2.ryy	.	2.ryy	.	4r	2.rAA	.	4r	.	4r	.	4r	.	2.ryy	.	.	8.f\	świe-	.	8.f/	.	.	8.a/	.	.	2.ryy	.	2.ryy	.	2.ryy	.	2.ryy	.	2.ryy	.	2.ryy	.	2.ryy	.	2.ryy	.	2.ryy	.
!	!	!	!	!	!	!	!	!	!	!	!	!	!	!	!	!	!	!	!	!	!	!	!	!LO:DY:a	!	!	!	!	!	!	!	!	!	!	!	!	!	!	!	!	!	!
.	.	.	.	.	.	.	.	.	.	.	.	.	.	.	.	16f\	-cie	.	16f/	.	.	16a/	.	<	.	.	.	.	.	.	.	.	.	.	.	.	.	.	.	.	.	.
!	!	!	!	!	!	!	!	!	!	!	!	!LO:HP:a	!	!	!	!	!	!	!	!	!	!	!	!	!	!	!	!	!	!	!	!	!	!	!	!	!	!	!	!	!	!
.	.	.	.	4r	.	.	4r	.	4r	.	4r	<	.	.	.	4f\	sły-	.	4f/	.	.	4a/	.	.	.	.	.	.	.	.	.	.	.	.	.	.	.	.	.	.	.	.
.	.	.	.	4E\ 4e	.	.	4e\	.	4g/	.	4cc\	[[	.	.	.	4e\	-nie	.	4g/	.	.	4cc\	.	[[	.	.	.	.	.	.	.	.	.	.	.	.	.	.	.	.	.	.
=20	=20	=20	=20	=20	=20	=20	=20	=20	=20	=20	=20	=20	=20	=20	=20	=20	=20	=20	=20	=20	=20	=20	=20	=20	=20	=20	=20	=20	=20	=20	=20	=20	=20	=20	=20	=20	=20	=20	=20	=20	=20	=20
!	!	!	!	!	!	!	!	!	!	!	!	!LO:DY:a	!	!	!	!	!	!LO:DY:a	!	!	!	!	!	!LO:DY:a	!	!	!	!	!	!	!	!	!	!	!	!	!	!	!	!	!	!
2.ryy	.	2.ryy	.	2d\	2.rAA	f	2f\	.	(4f/	.	(4ff\	f	2.ryy	.	.	[4d\	i-	f	2f/	.	.	(4ff\	.	f	2.ryy	.	2.ryy	.	2.ryy	.	2.ryy	.	2.ryy	.	2.ryy	.	2.ryy	.	2.ryy	.	2.ryy	.
.	.	.	.	.	.	.	.	.	4a-X/)	.	4aa-X\)	.	.	.	.	4d\]	.	.	.	.	.	4aa-X\)	.	.	.	.	.	.	.	.	.	.	.	.	.	.	.	.	.	.	.	.
!	!	!	!	!	!	!	!	!	!	!	!	!	!	!	!	!LO:SIC:s:v=d-	!	!	!	!	!	!	!	!	!	!	!	!	!	!	!	!	!	!	!	!	!	!	!	!	!	!
.	.	.	.	4d-X\	.	.	4f\	.	4g/	.	4bn\	.	.	.	.	4d\	-mie	.	4f/	.	.	4bn\	.	.	.	.	.	.	.	.	.	.	.	.	.	.	.	.	.	.	.	.
=	=	=	=	=	=	=	=	=	=	=	=	=	=	=	=	=	=	=	=	=	=	=	=	=	=	=	=	=	=	=	=	=	=	=	=	=	=	=	=	=	=	=
4ryy	.	4ryy	.	(8.d-X\L	4rAA	.	(8.f\L	.	[4g^/	.	(8.bn^>\L	.	4ryy	.	.	8.d-X\L	Two-	.	8.f/L	.	.	(8.bn^\L	.	.	4ryy	.	4ryy	.	4ryy	.	4ryy	.	4ryy	.	4ryy	.	4ryy	.	4ryy	.	4ryy	.
.	.	.	.	16c\Jk)	.	.	16e\Jk)	.	.	.	16cc\Jk)	.	.	.	.	16c\Jk	.	.	16e/Jk	.	.	16cc\Jk)	.	.	.	.	.	.	.	.	.	.	.	.	.	.	.	.	.	.	.	.
8ryy	.	8ryy	.	8c;\	8r;AA	.	8e;\	.	8g;/]	.	8cc;\	.	8ryy	.	.	8c;\	-je.	.	8e;/	.	.	8cc;\	.	.	8ryy	.	8ryy	.	8ryy	.	8ryy	.	8ryy	.	8ryy	.	8ryy	.	8ryy	.	8ryy	.
*	*	*	*	*v	*v	*	*	*	*	*	*	*	*	*	*	*	*	*	*	*	*	*	*	*	*	*	*	*	*	*	*	*	*	*	*	*	*	*	*	*	*	*
!!LO:PB:g=original
=21||	=21||	=21||	=21||	=21||	=21||	=21||	=21||	=21||	=21||	=21||	=21||	=21||	=21||	=21||	=21||	=21||	=21||	=21||	=21||	=21||	=21||	=21||	=21||	=21||	=21||	=21||	=21||	=21||	=21||	=21||	=21||	=21||	=21||	=21||	=21||	=21||	=21||	=21||	=21||	=21||	=21||
*	*	*	*	*	*	*	*	*	*	*	*	*	*	*	*	*	*	*	*	*	*	*	*	*	*	*	*	*	*	*	*	*	*	*	*	*^	*	*	*	*	*
!	!	!	!	!	!	!	!	!	!	!	!	!	!	!	!	!	!	!	!	!	!	!	!	!	!	!	!	!	!	!	!	!	!	!	!	!	!	!	!	!	!	!LO:HP:a
!	!	!	!	!	!	!	!	!	!	!	!	!	!	!	!	!	!	!	!	!	!	!	!	!	!	!	!	!	!	!	!	!	!	!	!	!LO:TX:a:t=Clarinetto	!	!LO:DY:a	!	!	!LO:TX:t=Flauto Oboe	!LO:DY:a
!	!	!	!	!	!	!	!	!	!	!	!	!	!	!	!	!	!	!	!	!	!	!	!	!	!	!	!	!	!	!	!	!	!	!	!	!	!	!	!	!	!LO:TX:t=P:problem:t. 22-25 parti Oboe zapisane na jednej linii z Fletami	!
4ryy	.	4ryy	.	8r	.	8r	.	8r	.	8r	.	4ryy	.	.	8f\	Bo	.	8f/	.	.	8a/	.	.	4ryy	.	4ryy	.	4ryy	.	4ryy	.	4ryy	.	4ryy	.	(8ff'\L	4rc	p	4.ryy	.	(8ff'\L 8aa	p <
.	.	.	.	4r	.	4r	.	4r	.	4r	.	.	.	.	8e\	sła-	.	8g/	.	.	8b-/	.	<	.	.	.	.	.	.	.	.	.	.	.	.	8ee'\	.	.	.	.	8gg'\ 8bb-	.
8ryy	.	8ryy	.	.	.	.	.	.	.	.	.	8ryy	.	.	8d\	-wy	.	8g#X/	.	.	8bn/	.	[	8ryy	.	8ryy	.	8ryy	.	8ryy	.	8ryy	.	8ryy	.	8dd'\J)	8rc	.	.	.	8gg#X'\J) 8bbn	[[
=22	=22	=22	=22	=22	=22	=22	=22	=22	=22	=22	=22	=22	=22	=22	=22	=22	=22	=22	=22	=22	=22	=22	=22	=22	=22	=22	=22	=22	=22	=22	=22	=22	=22	=22	=22	=22	=22	=22	=22	=22	=22	=22
!	!	!	!	!	!	!	!	!	!	!	!	!	!	!	!	!	!	!	!	!	!	!	!	!	!	!	!	!	!	!	!	!	!	!	!	!	!	!	!	!	!	!LO:HP:a
2.ryy	.	2.ryy	.	2.r	.	2.r	.	2.r	.	2.r	.	2.ryy	.	.	4c\	Nie-	.	4a/	.	.	4cc/	.	>	2.ryy	.	2.ryy	.	2.ryy	.	2.ryy	.	2.ryy	.	2.ryy	.	2cc/	2.r	.	2.ryy	.	([>4aa\ 4ccc	>
.	.	.	.	.	.	.	.	.	.	.	.	.	.	.	4c\	-bo	.	4f/	.	.	4a/	.	]	.	.	.	.	.	.	.	.	.	.	.	.	.	.	.	.	.	4ff\) 4aa]	.
.	.	.	.	.	.	.	.	.	.	.	.	.	.	.	4c\	o-	.	4f/	.	.	4a/	.	.	.	.	.	.	.	.	.	.	.	.	.	.	4cc/	.	.	.	.	[>4ff\ 4aa	]
=23	=23	=23	=23	=23	=23	=23	=23	=23	=23	=23	=23	=23	=23	=23	=23	=23	=23	=23	=23	=23	=23	=23	=23	=23	=23	=23	=23	=23	=23	=23	=23	=23	=23	=23	=23	=23	=23	=23	=23	=23	=23	=23
*	*	*	*	*	*	*	*	*	*	*	*	*	*	*	*	*	*	*	*	*	*	*	*	*	*	*	*	*	*	*	*	*	*	*	*	*	*	*	*	*	*^	*
2.ryy	.	2.ryy	.	2.r	.	2.r	.	2.r	.	2.r	.	2.ryy	.	.	2c\	-gar-	.	(>4f/	.	.	2g/	.	.	2.ryy	.	2.ryy	.	2.ryy	.	2.ryy	.	2.ryy	.	2.ryy	.	2cc/	2.r	.	2.ryy	.	[2gg/	4ff\]	.
.	.	.	.	.	.	.	.	.	.	.	.	.	.	.	.	.	.	8e/L	.	.	.	.	.	.	.	.	.	.	.	.	.	.	.	.	.	.	.	.	.	.	.	8ee\L	.
.	.	.	.	.	.	.	.	.	.	.	.	.	.	.	.	.	.	8d/J)	.	.	.	.	.	.	.	.	.	.	.	.	.	.	.	.	.	.	.	.	.	.	.	8dd\J	.
.	.	.	.	.	.	.	.	.	.	.	.	.	.	.	8.c\	-nąć	.	8.e/	.	.	8.g/	.	.	.	.	.	.	.	.	.	.	.	.	.	.	4cc/	.	.	.	.	8.gg/L]	4ee\	.
.	.	.	.	.	.	.	.	.	.	.	.	.	.	.	16c\	nie	.	16e/	.	.	16cc/	.	.	.	.	.	.	.	.	.	.	.	.	.	.	.	.	.	.	.	16ccc/Jk	.	.
=24	=24	=24	=24	=24	=24	=24	=24	=24	=24	=24	=24	=24	=24	=24	=24	=24	=24	=24	=24	=24	=24	=24	=24	=24	=24	=24	=24	=24	=24	=24	=24	=24	=24	=24	=24	=24	=24	=24	=24	=24	=24	=24	=24
*	*	*	*	*^	*	*	*	*	*	*	*	*	*	*	*	*	*	*	*	*	*	*	*	*	*	*	*	*	*	*	*	*	*	*	*	*	*	*	*	*	*	*	*
2.ryy	.	2.ryy	.	4r	2.rAA	.	4r	.	4r	.	4r	.	2.ryy	.	.	4d\	mo-	.	4f/	.	.	4a/	.	.	2.ryy	.	2.ryy	.	2.ryy	.	2.ryy	.	2.ryy	.	2.ryy	.	4.dd/	2.rc	.	2.ryy	.	4.aa/	4.ff\	.
.	.	.	.	8r	.	.	8r	.	8r	.	8r	.	.	.	.	8d\	-że	.	8f/	.	.	8a/	.	.	.	.	.	.	.	.	.	.	.	.	.	.	.	.	.	.	.	.	.	.
.	.	.	.	(8d'\L	.	.	(8f'\L	.	8f/L	p	(8a/L	<	.	.	.	8d\	.	.	8f/	.	.	8a/	nie	.	.	.	.	.	.	.	.	.	.	.	.	.	8r	.	.	.	.	8r	8reyy	.
.	.	.	.	8d-X'\	.	.	8f'\	.	8f/	.	8b-X/	.	.	.	.	8d-X\	.	.	8f/	.	.	8b-X/	nie	.	.	.	.	.	.	.	.	.	.	.	.	.	4r	.	.	.	.	4r	4reyy	.
.	.	.	.	8c'\J)	.	.	8f'\J)	.	8a/J	.	8cc/J)	.	.	.	.	8c\	.	.	8a/	.	.	8cc/	nie	.	.	.	.	.	.	.	.	.	.	.	.	.	.	.	.	.	.	.	.	.
*	*	*	*	*	*	*	*	*	*	*	*	*	*	*	*	*	*	*	*	*	*	*	*	*	*	*	*	*	*	*	*	*	*	*	*	*	*v	*v	*	*	*	*	*	*
*	*	*	*	*	*	*	*	*	*	*	*	*	*	*	*	*	*	*	*	*	*	*	*	*	*	*	*	*	*	*	*	*	*	*	*	*	*	*	*	*	*v	*v	*
=25	=25	=25	=25	=25	=25	=25	=25	=25	=25	=25	=25	=25	=25	=25	=25	=25	=25	=25	=25	=25	=25	=25	=25	=25	=25	=25	=25	=25	=25	=25	=25	=25	=25	=25	=25	=25	=25	=25	=25	=25	=25	=25
!	!	!	!	!	!	!	!	!	!	!LO:HP:t=cresc	!	!	!	!	!	!	!	!	!	!	!	!	!	!	!	!	!	!	!	!	!	!	!	!	!	!	!	!	!	!	!	!
2.ryy	.	2.ryy	.	2Bn\	2.rAA	.	2f\	.	2a-X/	<	2dd\	.	2.ryy	.	.	2Bn\	.	.	2a-X/	.	.	2dd\	mo-	.	2.ryy	.	2.ryy	.	2.ryy	.	2.ryy	.	2.ryy	.	2.ryy	.	2.r	.	2.ryy	.	2.r	.
.	.	.	.	4B-X\	.	.	4c\	.	4gn/	.	4eet\	[	.	.	.	4B-X\	.	.	4g/	.	.	4ee\	-że	.	.	.	.	.	.	.	.	.	.	.	.	.	.	.	.	.	.	.
.	.	.	.	.	.	.	.	.	.	.	16qqdd/LL	.	.	.	.	.	.	.	.	.	.	.	.	.	.	.	.	.	.	.	.	.	.	.	.	.	.	.	.	.	.	.
.	.	.	.	.	.	.	.	.	.	.	16qqee/JJ	.	.	.	.	.	.	.	.	.	.	.	.	.	.	.	.	.	.	.	.	.	.	.	.	.	.	.	.	.	.	.
!!LO:LB:g=original
=26	=26	=26	=26	=26	=26	=26	=26	=26	=26	=26	=26	=26	=26	=26	=26	=26	=26	=26	=26	=26	=26	=26	=26	=26	=26	=26	=26	=26	=26	=26	=26	=26	=26	=26	=26	=26	=26	=26	=26	=26	=26	=26
2.ryy	.	2.ryy	.	(2A\	2.rAA	.	8r	.	8r	.	(4.gg\	>	2.ryy	.	.	2A\	.	.	2f/	.	.	(4.gg\	Nie-	>	2.ryy	.	2.ryy	.	2.ryy	.	2.ryy	.	2.ryy	.	2.ryy	.	2.r	.	2.ryy	.	2.r	.
.	.	.	.	.	.	.	8c\L	.	8f/L	.	.	.	.	.	.	.	.	.	.	.	.	.	.	.	.	.	.	.	.	.	.	.	.	.	.	.	.	.	.	.	.	.
.	.	.	.	.	.	.	8c\	.	8f/	.	.	.	.	.	.	.	.	.	.	.	.	.	.	.	.	.	.	.	.	.	.	.	.	.	.	.	.	.	.	.	.	.
.	.	.	.	.	.	.	8c\J	.	8f/J	.	8ff\	.	.	.	.	.	.	.	.	.	.	8ff\)	.	]	.	.	.	.	.	.	.	.	.	.	.	.	.	.	.	.	.	.
.	.	.	.	4B-\)	.	.	8r	.	8r	.	8ee\L	]	.	.	.	4B-\	.	.	4f/	.	.	(8ee\L	-bo	.	.	.	.	.	.	.	.	.	.	.	.	.	.	.	.	.	.	.
.	.	.	.	.	.	.	8d\	.	8f/	.	8dd\J)	.	.	.	.	.	.	.	.	.	.	8dd\J)	.	.	.	.	.	.	.	.	.	.	.	.	.	.	.	.	.	.	.	.
=27	=27	=27	=27	=27	=27	=27	=27	=27	=27	=27	=27	=27	=27	=27	=27	=27	=27	=27	=27	=27	=27	=27	=27	=27	=27	=27	=27	=27	=27	=27	=27	=27	=27	=27	=27	=27	=27	=27	=27	=27	=27	=27
2.ryy	.	2.ryy	.	(2G\	2.rAA	.	8r	.	8r	.	(>4.cc/	.	2.ryy	.	.	2G/	.	.	2d/	.	.	(4.cc/	nie-	.	2.ryy	.	2.ryy	.	2.ryy	.	2.ryy	.	2.ryy	.	2.ryy	.	2.r	.	2.ryy	.	2.r	.
.	.	.	.	.	.	.	8B-/L	.	8d/L	.	.	.	.	.	.	.	.	.	.	.	.	.	.	.	.	.	.	.	.	.	.	.	.	.	.	.	.	.	.	.	.	.
.	.	.	.	.	.	.	8B-/	.	8d/	.	.	.	.	.	.	.	.	.	.	.	.	.	.	.	.	.	.	.	.	.	.	.	.	.	.	.	.	.	.	.	.	.
.	.	.	.	.	.	.	8B-/J	.	8d/J	.	8b-/	.	.	.	.	.	.	.	.	.	.	8b-/)	.	.	.	.	.	.	.	.	.	.	.	.	.	.	.	.	.	.	.	.
.	.	.	.	8B-\L	.	.	8B-\L	.	8d/L	.	8d/L	.	.	.	.	8B-\	.	.	8d/	.	.	8d/	-bo	.	.	.	.	.	.	.	.	.	.	.	.	.	.	.	.	.	.	.
.	.	.	.	8Bn\J)	.	.	8d\J	.	8f/J	.	8a-X/J)	.	.	.	.	8Bn\	.	.	8d/	.	.	8a-X/	o-	.	.	.	.	.	.	.	.	.	.	.	.	.	.	.	.	.	.	.
=28	=28	=28	=28	=28	=28	=28	=28	=28	=28	=28	=28	=28	=28	=28	=28	=28	=28	=28	=28	=28	=28	=28	=28	=28	=28	=28	=28	=28	=28	=28	=28	=28	=28	=28	=28	=28	=28	=28	=28	=28	=28	=28
2.ryy	.	2.ryy	.	(2c\	2.rAA	.	2.c\	.	(2f/	.	(4a/	.	2.ryy	.	.	4c\	.	.	4f/	.	.	4an/	-gar-	.	2.ryy	.	2.ryy	.	2.ryy	.	2.ryy	.	2.ryy	.	2.ryy	.	2.ryy	.	2.r	.	2.r	.
.	.	.	.	.	.	.	.	.	.	.	4g/	.	.	.	.	4c\	.	.	4f/	.	.	4g/	-nąć	.	.	.	.	.	.	.	.	.	.	.	.	.	.	.	.	.	.	.
.	.	.	.	4C/)	.	.	.	.	4e/)	.	4cc\	.	.	.	.	4c\	.	.	4e/	.	.	4cc/	nie	.	.	.	.	.	.	.	.	.	.	.	.	.	.	.	.	.	.	.
=29	=29	=29	=29	=29	=29	=29	=29	=29	=29	=29	=29	=29	=29	=29	=29	=29	=29	=29	=29	=29	=29	=29	=29	=29	=29	=29	=29	=29	=29	=29	=29	=29	=29	=29	=29	=29	=29	=29	=29	=29	=29	=29
2.ryy	.	2.ryy	.	4.F\	4rCC	.	4.f\	.	4.f/	.	4.f/)	.	2.ryy	.	.	4f\	.	.	4f/	.	.	4f/	mo-	.	2.ryy	.	2.ryy	.	2.ryy	.	2.ryy	.	2.ryy	.	2.ryy	.	2.ryy	.	4r	.	4r	.
.	.	.	.	.	8rCC	.	.	.	.	.	.	.	.	.	.	8f\	.	.	8f/	.	.	8f/	-że.	.	.	.	.	.	.	.	.	.	.	.	.	.	.	.	8r	.	8r	f
!	!	!	!	!	!	!	!	!	!	!	!	!	!	!	!	!	!	!	!	!	!	!LO:TX:a:t=Chór	!	!LO:DY:a	!	!	!	!	!	!	!	!	!	!	!	!	!	!	!	!	!	!
.	.	.	.	8F\L	8ryy	f	8f\L	f	8f/L	.	8f/L	f	.	.	.	8F/	.	.	8f/	.	f	8f/	Po-	f	.	.	.	.	.	.	.	.	.	.	.	.	.	.	8f/L	.	8ff\L	.
.	.	.	.	8d\	4ryy	.	8d\	.	8dd/	.	8dd/	.	.	.	.	8d\	.	.	8dd\	.	.	8dd\	-tę-	.	.	.	.	.	.	.	.	.	.	.	.	.	.	.	8dd/	.	8ddd\	.
.	.	.	.	8Bn\J	.	.	8Bn\J	.	8bn/J	.	8bn/J	.	.	.	.	8Bn\	.	.	8bn\	.	.	8bn\	-żny	.	.	.	.	.	.	.	.	.	.	.	.	.	.	.	8bn/J	.	8bbn\J	.
*	*	*	*	*v	*v	*	*	*	*	*	*	*	*	*	*	*	*	*	*	*	*	*	*	*	*	*	*	*	*	*	*	*	*	*	*	*	*	*	*	*	*	*
=30	=30	=30	=30	=30	=30	=30	=30	=30	=30	=30	=30	=30	=30	=30	=30	=30	=30	=30	=30	=30	=30	=30	=30	=30	=30	=30	=30	=30	=30	=30	=30	=30	=30	=30	=30	=30	=30	=30	=30	=30	=30
2.ryy	.	2.ryy	.	(4c\	.	(4c/	.	(4cc/	.	(4cc/	.	2.ryy	.	.	4c\	.	.	4cc\	.	.	4cc\	Bo-	.	2.ryy	.	2.ryy	.	2.ryy	.	2.ryy	.	2.ryy	.	2.ryy	.	2.ryy	.	(4cc/	.	(4ccc\	.
.	.	.	.	8A\)	.	8A/)	.	8a/)	.	8a/)	.	.	.	.	8A\	.	.	8a/	.	.	8a/	-że	.	.	.	.	.	.	.	.	.	.	.	.	.	.	.	8a/)	.	8aa\)	.
!	!	!	!	!	!	!	!	!	!	!	!	!	!	!	!	!	!	!	!	!	!LO:TX:a:t=Solo	!	!	!	!	!	!	!	!	!	!	!	!	!	!	!	!	!	!	!	!
.	.	.	.	8r	.	8r	.	8r	.	8r	.	.	.	.	8c\	.	.	8f/	.	.	8a/	Po-	.	.	.	.	.	.	.	.	.	.	.	.	.	.	.	8r	.	8r	.
.	.	.	.	4r	.	4r	.	4r	.	4r	.	.	.	.	8A\	.	.	8a/	.	.	8cc\	-tę-	.	.	.	.	.	.	.	.	.	.	.	.	.	.	.	4r	.	4r	.
.	.	.	.	.	.	.	.	.	.	.	.	.	.	.	8F/	.	.	8a/	.	.	8ff\	-żny	.	.	.	.	.	.	.	.	.	.	.	.	.	.	.	.	.	.	.
!!LO:PB:g=original
=31	=31	=31	=31	=31	=31	=31	=31	=31	=31	=31	=31	=31	=31	=31	=31	=31	=31	=31	=31	=31	=31	=31	=31	=31	=31	=31	=31	=31	=31	=31	=31	=31	=31	=31	=31	=31	=31	=31	=31	=31	=31
2.ryy	.	2.r	.	2.r	.	2.r	.	2.r	.	2.r	.	2.r	.	.	(2c\	.	.	(>2g/	.	.	(4ff\	Bo-	.	2.r	.	2.r	.	2.r	.	2.r	.	2.r	.	2.r	.	2.r	.	2.r	.	2.r	.
.	.	.	.	.	.	.	.	.	.	.	.	.	.	.	.	.	.	.	.	.	8ee\L	.	.	.	.	.	.	.	.	.	.	.	.	.	.	.	.	.	.	.	.
.	.	.	.	.	.	.	.	.	.	.	.	.	.	.	.	.	.	.	.	.	8dd\J	.	.	.	.	.	.	.	.	.	.	.	.	.	.	.	.	.	.	.	.
.	.	.	.	.	.	.	.	.	.	.	.	.	.	.	8.c\L	.	.	8.g/L	.	.	8.ee\L	.	.	.	.	.	.	.	.	.	.	.	.	.	.	.	.	.	.	.	.
.	.	.	.	.	.	.	.	.	.	.	.	.	.	.	16d\Jk)	.	.	16f/Jk)	.	.	16ff\Jk)	.	.	.	.	.	.	.	.	.	.	.	.	.	.	.	.	.	.	.	.
=32	=32	=32	=32	=32	=32	=32	=32	=32	=32	=32	=32	=32	=32	=32	=32	=32	=32	=32	=32	=32	=32	=32	=32	=32	=32	=32	=32	=32	=32	=32	=32	=32	=32	=32	=32	=32	=32	=32	=32	=32	=32
2.ryy	.	4r	.	2.ryy	.	4r	.	4r	.	4r	.	4r	.	.	4d\	.	.	4f/	.	.	4ff\	-że	.	2.r	.	2.r	.	2.r	.	4r	.	4r	.	2.r	.	4r	.	4r	.	4r	.
.	.	8r	.	.	.	8r	.	8r	.	8r	.	8r	.	.	8r	.	.	8r	.	.	8r	.	.	.	.	.	.	.	.	8r	.	8r	.	.	.	8r	.	8r	.	8r	.
!	!	!	!	!	!	!	!	!	!	!	!	!	!	!LO:DY:a	!	!	!LO:DY:b	!	!	!	!LO:TX:a:t=Choro	!	!	!	!	!	!	!	!	!	!	!	!	!	!	!	!	!	!	!	!
.	.	8d'\L	f	.	.	8d/L	.	8dd\L	f	8dd\L	f	8d\	Po-	f	8d\	.	f	8dd\	.	f	8dd\	Po-	f	.	.	.	.	.	.	8dd\L	.	8d\L	f	.	.	8dd/L	f	8ddd\L	.	8ddd\L	f
.	.	8A'\	.	.	.	8A/	.	8a\	.	8a\	.	8A\	-tę-	.	8A\	.	.	8a\	.	.	8a\	-tę-	.	.	.	.	.	.	.	8a\	.	8A\	.	.	.	8a/	.	8aa\	.	8aa\	.
.	.	8Bn'\J	.	.	.	8Bn/J	.	8bn\J	.	8bn\J	.	8Bn\	-żny	.	8Bn\	.	.	8bn\	.	.	8bn\	-żny	.	.	.	.	.	.	.	8bn\J	.	8Bn\J	.	.	.	8bn/J	.	8bbn\J	.	8bbn\J	.
=33	=33	=33	=33	=33	=33	=33	=33	=33	=33	=33	=33	=33	=33	=33	=33	=33	=33	=33	=33	=33	=33	=33	=33	=33	=33	=33	=33	=33	=33	=33	=33	=33	=33	=33	=33	=33	=33	=33	=33	=33	=33
2.ryy	.	(4c\	.	2.ryy	.	(4c/	.	(4cc\	.	(4cc\	.	4c\	Bo-	.	4c\	.	.	4cc\	.	.	4cc\	Bo-	.	2.r	.	2.r	.	2.r	.	(4cc\	.	(4c\	.	2.r	.	(4cc/	.	(4ccc\	.	(4ccc\	.
.	.	8A\)	.	.	.	8A/)	.	8a\)	.	8a\)	.	8A\	-że	.	8A\	.	.	8a/	.	.	8a/	-że	.	.	.	.	.	.	.	8a\)	.	8A\)	.	.	.	8a/)	.	8aa\)	.	8aa\)	.
.	.	8r	.	.	.	8r	.	8r	.	8r	.	8r	.	.	8r	.	.	8r	.	.	8r	.	.	.	.	.	.	.	.	8r	.	8r	.	.	.	8r	.	8r	.	8r	.
!	!	!	!	!	!	!	!	!	!	!	!	!	!	!	!	!	!LO:DY:a	!	!	!LO:DY:a	!LO:TX:a:t=Solo	!	!LO:DY:a	!	!	!	!	!	!	!	!	!	!	!	!	!	!	!	!	!	!
.	.	4r	.	.	.	4r	.	4r	.	4r	.	4r	.	.	((8F/L	.	p	4f/	.	p	4a/	Bo-	p	.	.	.	.	.	.	4r	.	4r	.	.	.	4r	.	4r	.	4r	.
.	.	.	.	.	.	.	.	.	.	.	.	.	.	.	8A/J)	.	.	.	.	.	.	.	.	.	.	.	.	.	.	.	.	.	.	.	.	.	.	.	.	.	.
=34	=34	=34	=34	=34	=34	=34	=34	=34	=34	=34	=34	=34	=34	=34	=34	=34	=34	=34	=34	=34	=34	=34	=34	=34	=34	=34	=34	=34	=34	=34	=34	=34	=34	=34	=34	=34	=34	=34	=34	=34	=34
2.ryy	.	2.r	.	2.ryy	.	2.r	.	2.r	.	2.r	.	2.r	.	.	(2c\)	.	.	(>4f/	.	.	(>[>2g/	.	.	2.r	.	2.r	.	2.r	.	2.r	.	2.r	.	2.r	.	2.r	.	2.r	.	2.r	.
.	.	.	.	.	.	.	.	.	.	.	.	.	.	.	.	.	.	8e/L	.	.	.	.	.	.	.	.	.	.	.	.	.	.	.	.	.	.	.	.	.	.	.
.	.	.	.	.	.	.	.	.	.	.	.	.	.	.	.	.	.	8d/J	.	.	.	.	.	.	.	.	.	.	.	.	.	.	.	.	.	.	.	.	.	.	.
.	.	.	.	.	.	.	.	.	.	.	.	.	.	.	8.c\L	.	.	8.e/L	.	.	8.g/L]	.	.	.	.	.	.	.	.	.	.	.	.	.	.	.	.	.	.	.	.
.	.	.	.	.	.	.	.	.	.	.	.	.	.	.	16f\Jk)	.	.	16f/Jk	.	.	16f/Jk	.	.	.	.	.	.	.	.	.	.	.	.	.	.	.	.	.	.	.	.
=35	=35	=35	=35	=35	=35	=35	=35	=35	=35	=35	=35	=35	=35	=35	=35	=35	=35	=35	=35	=35	=35	=35	=35	=35	=35	=35	=35	=35	=35	=35	=35	=35	=35	=35	=35	=35	=35	=35	=35	=35	=35
*	*	*	*	*	*	*	*	*	*	*	*	*	*	*	*	*	*	*	*	*	*	*	*	*	*	*	*	*	*	*	*	*	*	*^	*	*^	*	*	*	*	*
!	!	!	!	!	!	!	!	!	!	!	!	!	!	!	!	!	!	!	!	!	!	!	!	!	!	!	!	!	!	!	!	!	!LO:DY:a	!	!	!	!	!	!	!	!LO:DY:a	!	!
2.r	.	4r	f	2.ryy	.	4r	f	4r	f	4r	f	2.r	.	.	4f\	.	.	4f/)	.	.	4f/)	-że.	.	4r	.	4r	.	4r	.	4r	.	4r	f	4r	4rcyy	.	4r	4rcyy	f	4r	f	4r	.
*	*	*tremolo	*	*	*	*tremolo	*	*tremolo	*	*tremolo	*	*	*	*	*	*	*	*	*	*	*	*	*	*	*	*	*	*	*	*	*	*	*	*	*	*	*	*	*	*	*	*	*
!	!	!	!	!	!	!	!	!	!	!	!	!	!	!	!	!	!	!	!	!	!	!	!	!	!LO:DY:a	!	!LO:DY:a	!	!LO:DY:a	!	!	!	!	!	!	!	!	!	!	!	!	!	!
.	.	32F\LLL	.	.	.	32A\LLL 32f	.	32a/LLL	.	32ff\LLL 32fff	.	.	.	.	4r	.	.	4r	.	.	4r	.	.	4FF\ 4F	f	4A/	f	4f\	f	4f/ 4cc	.	4FF\ 4F	.	4ff/	4cc\	.	4ff/	4a\	.	4aa\	.	(4fff\	.
.	.	32F\	.	.	.	32A\ 32f	.	32a/	.	32ff\ 32fff	.	.	.	.	.	.	.	.	.	.	.	.	.	.	.	.	.	.	.	.	.	.	.	.	.	.	.	.	.	.	.	.	.
.	.	32F\	.	.	.	32A\ 32f	.	32a/	.	32ff\ 32fff	.	.	.	.	.	.	.	.	.	.	.	.	.	.	.	.	.	.	.	.	.	.	.	.	.	.	.	.	.	.	.	.	.
.	.	32F\	.	.	.	32A\ 32f	.	32a/	.	32ff\ 32fff	.	.	.	.	.	.	.	.	.	.	.	.	.	.	.	.	.	.	.	.	.	.	.	.	.	.	.	.	.	.	.	.	.
.	.	32F\	.	.	.	32A\ 32f	.	32a/	.	32ff\ 32fff	.	.	.	.	.	.	.	.	.	.	.	.	.	.	.	.	.	.	.	.	.	.	.	.	.	.	.	.	.	.	.	.	.
.	.	32F\	.	.	.	32A\ 32f	.	32a/	.	32ff\ 32fff	.	.	.	.	.	.	.	.	.	.	.	.	.	.	.	.	.	.	.	.	.	.	.	.	.	.	.	.	.	.	.	.	.
.	.	32F\	.	.	.	32A\ 32f	.	32a/	.	32ff\ 32fff	.	.	.	.	.	.	.	.	.	.	.	.	.	.	.	.	.	.	.	.	.	.	.	.	.	.	.	.	.	.	.	.	.
.	.	32F\JJJ	.	.	.	32A\JJJ 32f	.	32a/JJJ	.	32ff\JJJ 32fff	.	.	.	.	.	.	.	.	.	.	.	.	.	.	.	.	.	.	.	.	.	.	.	.	.	.	.	.	.	.	.	.	.
.	.	32A\LLL	.	.	.	32A\LLL 32e	.	32g/LLL	.	32cc#X\LLL 32ccc#X	.	.	.	.	4r	.	.	4r	.	.	4r	.	.	4AA\ 4A	.	4G/	.	4c#X\	.	4e/ 4cc#X	.	4AA\ 4A	.	4ee/	4cc#X\	.	4cc#X/	4g\	.	4gg\	.	4ccc#X\	.
.	.	32A\	.	.	.	32A\ 32e	.	32g/	.	32cc#\ 32ccc#	.	.	.	.	.	.	.	.	.	.	.	.	.	.	.	.	.	.	.	.	.	.	.	.	.	.	.	.	.	.	.	.	.
.	.	32A\	.	.	.	32A\ 32e	.	32g/	.	32cc#\ 32ccc#	.	.	.	.	.	.	.	.	.	.	.	.	.	.	.	.	.	.	.	.	.	.	.	.	.	.	.	.	.	.	.	.	.
.	.	32A\	.	.	.	32A\ 32e	.	32g/	.	32cc#\ 32ccc#	.	.	.	.	.	.	.	.	.	.	.	.	.	.	.	.	.	.	.	.	.	.	.	.	.	.	.	.	.	.	.	.	.
.	.	32A\	.	.	.	32A\ 32e	.	32g/	.	32cc#\ 32ccc#	.	.	.	.	.	.	.	.	.	.	.	.	.	.	.	.	.	.	.	.	.	.	.	.	.	.	.	.	.	.	.	.	.
.	.	32A\	.	.	.	32A\ 32e	.	32g/	.	32cc#\ 32ccc#	.	.	.	.	.	.	.	.	.	.	.	.	.	.	.	.	.	.	.	.	.	.	.	.	.	.	.	.	.	.	.	.	.
.	.	32A\	.	.	.	32A\ 32e	.	32g/	.	32cc#\ 32ccc#	.	.	.	.	.	.	.	.	.	.	.	.	.	.	.	.	.	.	.	.	.	.	.	.	.	.	.	.	.	.	.	.	.
.	.	32A\JJJ	.	.	.	32A\JJJ 32e	.	32g/JJJ	.	32cc#\JJJ 32ccc#	.	.	.	.	.	.	.	.	.	.	.	.	.	.	.	.	.	.	.	.	.	.	.	.	.	.	.	.	.	.	.	.	.
=36	=36	=36	=36	=36	=36	=36	=36	=36	=36	=36	=36	=36	=36	=36	=36	=36	=36	=36	=36	=36	=36	=36	=36	=36	=36	=36	=36	=36	=36	=36	=36	=36	=36	=36	=36	=36	=36	=36	=36	=36	=36	=36	=36
*	*	*	*	*	*	*	*	*	*	*	*	*	*	*	*	*	*	*	*	*	*	*	*	*	*	*	*	*	*	*^	*	*	*	*	*	*	*	*	*	*	*	*	*
4r	.	32B-\LLL	.	2.ryy	.	32B-\LLL 32d	.	32f/LLL	.	32dd\LLL 32ddd	.	2.r	.	.	2.r	.	.	2.r	.	.	2.r	.	.	2BB-\ 2B-	.	2F/	.	2d\	.	2dd/	2f\	.	2BB-\ 2B-	.	2dd/	2dd\	.	2dd/	2f\	.	2ff\	.	(2ddd\)	.
.	.	32B-\	.	.	.	32B-\ 32d	.	32f/	.	32dd\ 32ddd	.	.	.	.	.	.	.	.	.	.	.	.	.	.	.	.	.	.	.	.	.	.	.	.	.	.	.	.	.	.	.	.	.	.
.	.	32B-\	.	.	.	32B-\ 32d	.	32f/	.	32dd\ 32ddd	.	.	.	.	.	.	.	.	.	.	.	.	.	.	.	.	.	.	.	.	.	.	.	.	.	.	.	.	.	.	.	.	.	.
.	.	32B-\	.	.	.	32B-\ 32d	.	32f/	.	32dd\ 32ddd	.	.	.	.	.	.	.	.	.	.	.	.	.	.	.	.	.	.	.	.	.	.	.	.	.	.	.	.	.	.	.	.	.	.
.	.	32B-\	.	.	.	32B-\ 32d	.	32f/	.	32dd\ 32ddd	.	.	.	.	.	.	.	.	.	.	.	.	.	.	.	.	.	.	.	.	.	.	.	.	.	.	.	.	.	.	.	.	.	.
.	.	32B-\	.	.	.	32B-\ 32d	.	32f/	.	32dd\ 32ddd	.	.	.	.	.	.	.	.	.	.	.	.	.	.	.	.	.	.	.	.	.	.	.	.	.	.	.	.	.	.	.	.	.	.
.	.	32B-\	.	.	.	32B-\ 32d	.	32f/	.	32dd\ 32ddd	.	.	.	.	.	.	.	.	.	.	.	.	.	.	.	.	.	.	.	.	.	.	.	.	.	.	.	.	.	.	.	.	.	.
.	.	32B-\	.	.	.	32B-\ 32d	.	32f/	.	32dd\ 32ddd	.	.	.	.	.	.	.	.	.	.	.	.	.	.	.	.	.	.	.	.	.	.	.	.	.	.	.	.	.	.	.	.	.	.
4r	.	32B-\	.	.	.	32B-\ 32d	.	32f/	.	32dd\ 32ddd	.	.	.	.	.	.	.	.	.	.	.	.	.	.	.	.	.	.	.	.	.	.	.	.	.	.	.	.	.	.	.	.	.	.
.	.	32B-\	.	.	.	32B-\ 32d	.	32f/	.	32dd\ 32ddd	.	.	.	.	.	.	.	.	.	.	.	.	.	.	.	.	.	.	.	.	.	.	.	.	.	.	.	.	.	.	.	.	.	.
.	.	32B-\	.	.	.	32B-\ 32d	.	32f/	.	32dd\ 32ddd	.	.	.	.	.	.	.	.	.	.	.	.	.	.	.	.	.	.	.	.	.	.	.	.	.	.	.	.	.	.	.	.	.	.
.	.	32B-\	.	.	.	32B-\ 32d	.	32f/	.	32dd\ 32ddd	.	.	.	.	.	.	.	.	.	.	.	.	.	.	.	.	.	.	.	.	.	.	.	.	.	.	.	.	.	.	.	.	.	.
.	.	32B-\	.	.	.	32B-\ 32d	.	32f/	.	32dd\ 32ddd	.	.	.	.	.	.	.	.	.	.	.	.	.	.	.	.	.	.	.	.	.	.	.	.	.	.	.	.	.	.	.	.	.	.
.	.	32B-\	.	.	.	32B-\ 32d	.	32f/	.	32dd\ 32ddd	.	.	.	.	.	.	.	.	.	.	.	.	.	.	.	.	.	.	.	.	.	.	.	.	.	.	.	.	.	.	.	.	.	.
.	.	32B-\	.	.	.	32B-\ 32d	.	32f/	.	32dd\ 32ddd	.	.	.	.	.	.	.	.	.	.	.	.	.	.	.	.	.	.	.	.	.	.	.	.	.	.	.	.	.	.	.	.	.	.
.	.	32B-\JJJ	.	.	.	32B-\JJJ 32d	.	32f/	.	32dd\JJJ 32ddd	.	.	.	.	.	.	.	.	.	.	.	.	.	.	.	.	.	.	.	.	.	.	.	.	.	.	.	.	.	.	.	.	.	.
!LO:SIC:s=4GG^\	!	!	!	!	!	!	!	!	!	!	!	!	!	!	!	!	!	!	!	!	!	!	!	!	!	!	!	!	!	!	!	!	!	!	!	!	!	!	!	!	!	!	!	!
4Re^\	.	32Bn\LLL	.	.	.	32Bn\LLL 32d	.	32f/	.	32g^<\LLL 32gg	.	.	.	.	.	.	.	.	.	.	.	.	.	4BBn^\ 4Bn	.	4F^/	.	4d^\	.	4dd/	4f^<\	.	4BBn\ 4Bn	.	4dd/	4dd\	.	4g/	4f\	.	4ff^\	.	4gg\)	.
.	.	32B\	.	.	.	32B\ 32d	.	32f/	.	32g\ 32gg	.	.	.	.	.	.	.	.	.	.	.	.	.	.	.	.	.	.	.	.	.	.	.	.	.	.	.	.	.	.	.	.	.	.
.	.	32B\	.	.	.	32B\ 32d	.	32f/	.	32g\ 32gg	.	.	.	.	.	.	.	.	.	.	.	.	.	.	.	.	.	.	.	.	.	.	.	.	.	.	.	.	.	.	.	.	.	.
.	.	32B\	.	.	.	32B\ 32d	.	32f/	.	32g\ 32gg	.	.	.	.	.	.	.	.	.	.	.	.	.	.	.	.	.	.	.	.	.	.	.	.	.	.	.	.	.	.	.	.	.	.
.	.	32B\	.	.	.	32B\ 32d	.	32f/	.	32g\ 32gg	.	.	.	.	.	.	.	.	.	.	.	.	.	.	.	.	.	.	.	.	.	.	.	.	.	.	.	.	.	.	.	.	.	.
.	.	32B\	.	.	.	32B\ 32d	.	32f/	.	32g\ 32gg	.	.	.	.	.	.	.	.	.	.	.	.	.	.	.	.	.	.	.	.	.	.	.	.	.	.	.	.	.	.	.	.	.	.
.	.	32B\	.	.	.	32B\ 32d	.	32f/	.	32g\ 32gg	.	.	.	.	.	.	.	.	.	.	.	.	.	.	.	.	.	.	.	.	.	.	.	.	.	.	.	.	.	.	.	.	.	.
.	.	32B\JJJ	.	.	.	32B\JJJ 32d	.	32f/JJJ	.	32g\JJJ 32gg	.	.	.	.	.	.	.	.	.	.	.	.	.	.	.	.	.	.	.	.	.	.	.	.	.	.	.	.	.	.	.	.	.	.
*	*	*Xtremolo	*	*	*	*Xtremolo	*	*Xtremolo	*	*Xtremolo	*	*	*	*	*	*	*	*	*	*	*	*	*	*	*	*	*	*	*	*	*	*	*	*	*	*	*	*	*	*	*	*	*	*
*	*	*	*	*	*	*	*	*	*	*	*	*	*	*	*	*	*	*	*	*	*	*	*	*	*	*	*	*	*	*v	*v	*	*	*	*v	*v	*	*	*	*	*	*	*	*
!!LO:PB:g=original
=37	=37	=37	=37	=37	=37	=37	=37	=37	=37	=37	=37	=37	=37	=37	=37	=37	=37	=37	=37	=37	=37	=37	=37	=37	=37	=37	=37	=37	=37	=37	=37	=37	=37	=37	=37	=37	=37	=37	=37	=37	=37	=37
!LO:SIC:s=2.CTT</	!	!	!	!	!	!	!	!	!	!	!	!	!	!	!	!	!	!	!	!	!	!	!	!	!	!	!	!	!	!	!	!	!	!	!	!	!	!	!	!LO:DY:a	!	!
.2ReTT</	pp	2.r	.	2.r	.	2.r	.	2.r	.	2.r	.	2.r	.	.	2.r	.	.	2.r	.	.	2.r	.	.	2.r	.	2.r	.	2.r	.	2.c/ 2.cc	p	(2c\	p	2.r	.	(4a/	2f\	.	(2ff\	p	(4aa\	.
.	.	.	.	.	.	.	.	.	.	.	.	.	.	.	.	.	.	.	.	.	.	.	.	.	.	.	.	.	.	.	.	.	.	.	.	4g/	.	.	.	.	4gg\	.
.	.	.	.	.	.	.	.	.	.	.	.	.	.	.	.	.	.	.	.	.	.	.	.	.	.	.	.	.	.	.	.	4C/)	.	.	.	4cc/)	4e\	.	4ee\)	.	4ccc\)	.
=38	=38	=38	=38	=38	=38	=38	=38	=38	=38	=38	=38	=38	=38	=38	=38	=38	=38	=38	=38	=38	=38	=38	=38	=38	=38	=38	=38	=38	=38	=38	=38	=38	=38	=38	=38	=38	=38	=38	=38	=38	=38	=38
4r	.	4r	.	4r	.	4r	.	4r	.	4r	f	2.r	.	.	2.r	.	.	2.r	.	.	2.r	.	.	4r	.	4r	.	4r	.	8f/	.	8F\	.	4r	.	8f/	8f\	.	8ff\	.	(8ff\	.
.	.	.	.	.	.	.	.	.	.	.	.	.	.	.	.	.	.	.	.	.	.	.	.	.	f	.	.	.	f	8r	.	8r	.	.	f	8r	8rFyy	.	8r	.	8r	.
!LO:SIC:s=4C/	!	!	!	!	!	!	!	!	!	!	!	!	!	!	!	!	!	!	!	!	!	!	!	!	!	!	!	!	!	!	!	!	!	!	!	!	!	!	!	!LO:DY:a	!	!
4Re/	f	4F\	f	4F\	f	4A\ 4f	.	4a\ 4ff	.	4a\ 4fff	.	.	.	.	.	.	.	.	.	.	.	.	.	4FF\ 4F	.	4A\	.	4f\	.	4f/ 4a	.	4FF\ 4F	.	4c/ 4cc	.	4a\ 4ff	4rFyy	.	4ff\	f	4fff\)	.
4r;	.	4r;	.	4r;	.	4r;	.	4r;	.	4r;	.	.	.	.	.	.	.	.	.	.	.	.	.	4r;	.	4r;	.	4r;	.	4r;	.	4r;	.	4r;	.	4r;	4rFyy	.	4r;	.	4r;	.
*	*	*	*	*	*	*	*	*	*	*	*	*	*	*	*	*	*	*	*	*	*	*	*	*	*	*	*	*	*	*	*	*	*	*	*	*v	*v	*	*	*	*	*
==	==	==	==	==	==	==	==	==	==	==	==	==	==	==	==	==	==	==	==	==	==	==	==	==	==	==	==	==	==	==	==	==	==	==	==	==	==	==	==	==	==
*-	*-	*-	*-	*-	*-	*-	*-	*-	*-	*-	*-	*-	*-	*-	*-	*-	*-	*-	*-	*-	*-	*-	*-	*-	*-	*-	*-	*-	*-	*-	*-	*-	*-	*-	*-	*-	*-	*-	*-	*-	*-
!!!system-decoration: [(s1,s2,s3)]s4,s5,s6[(g1)][(s10,s11,s12,s13)][(g2,s16)][(s17,s18)]s19
!!!RDF**kern: < = below
!!!RDF**kern: > = above
!!!RDF**kern: | = vertical stroke
!!!ENC: Marta Chmielewska
!!!END: 2021-04-30
!!!ENC: Marcin Jachim
!!!END: 2021-04-12
